; generated on 2017-07-27 14:35:29

; external perimeters extrusion width = 0.5 (2.74248mm^3)
; perimeters extrusion width = 0.85 (9.68496mm^3)
; infill extrusion width = 1.02467 (15.708mm^3)
; solid infill extrusion width = 0.85 (12.9133mm^3)
; top solid infill extrusion width = 0.85 (12.9133mm^3)
; support material extrusion width = 0.5 (5.48496mm^3)
; first layer extrusion width = 0.4 (4.28496mm^3)

M107
M190 S60 ; set bed temperature and wait for it to be reached

M104 S200 ; set temperature
G28 ; home all axes
G1 Z5 F5000 ; lift nozzle

; Filament gcode

M109 S200 ; set temperature and wait for it to be reached
G21 ; set units to millimeters
G90 ; use absolute coordinates
M82 ; use absolute distances for extrusion
G92 E0
G1 Z0.350 F7800.000
G1 E-2.00000 F2400.00000
G92 E0
G1 X123.860 Y79.908 F7800.000
G1 E2.00000 F2400.00000
G1 F1800
G1 X125.317 Y77.947 E2.22218
G1 X127.108 Y76.100 E2.45608
G1 X127.742 Y75.555 E2.53214
G1 X128.935 Y74.645 E2.66856
G1 X131.146 Y73.301 E2.90379
G1 X132.234 Y72.782 E3.01342
G1 X133.418 Y72.307 E3.12949
G1 X135.718 Y71.624 E3.34759
G1 X138.185 Y71.228 E3.57480
G1 X140.000 Y71.139 E3.74006
G1 X141.732 Y71.223 E3.89774
G1 X144.307 Y71.631 E4.13482
G1 X146.723 Y72.357 E4.36418
G1 X147.763 Y72.781 E4.46628
G1 X148.844 Y73.296 E4.57520
G1 X151.066 Y74.645 E4.81154
G1 X152.243 Y75.543 E4.94614
G1 X152.893 Y76.101 E5.02402
G1 X154.674 Y77.937 E5.25664
G1 X156.141 Y79.908 E5.48007
G1 X157.205 Y81.759 E5.67425
G1 X157.349 Y82.043 E5.70315
G1 X158.203 Y84.128 E5.90802
G1 X158.267 Y84.311 E5.92567
G1 X158.905 Y86.731 E6.15323
G1 X159.220 Y89.188 E6.37844
G1 X159.220 Y91.658 E6.60308
G1 X158.885 Y94.216 E6.83767
G1 X157.785 Y99.061 E7.28943
G1 X156.721 Y103.509 E7.70525
G1 X156.536 Y104.215 E7.77169
G1 X155.704 Y106.706 E8.01047
G1 X154.595 Y108.933 E8.23672
G1 X153.138 Y111.019 E8.46808
G1 X151.411 Y112.851 E8.69693
G1 X149.458 Y114.399 E8.92361
G1 X147.260 Y115.666 E9.15426
G1 X144.920 Y116.592 E9.38307
G1 X142.548 Y117.153 E9.60476
G1 X140.000 Y117.379 E9.83734
G1 X137.515 Y117.166 E10.06415
G1 X135.080 Y116.592 E10.29164
G1 X132.740 Y115.666 E10.52046
G1 X130.561 Y114.410 E10.74918
G1 X128.587 Y112.850 E10.97790
G1 X126.807 Y110.950 E11.21466
G1 X125.423 Y108.959 E11.43517
G1 X124.278 Y106.669 E11.66795
G1 X123.457 Y104.186 E11.90579
G1 X122.215 Y99.059 E12.38543
G1 X121.100 Y94.137 E12.84437
G1 X120.780 Y91.660 E13.07148
G1 X120.780 Y89.188 E13.29622
G1 X121.099 Y86.708 E13.52358
G1 X121.702 Y84.406 E13.73996
G1 X121.799 Y84.122 E13.76720
G1 X122.652 Y82.042 E13.97161
G1 X122.791 Y81.766 E13.99977
G1 X123.822 Y79.973 E14.18784
G1 X123.318 Y79.596 F7800.000
G1 F1800
G1 X124.840 Y77.541 E14.42038
G1 X126.679 Y75.645 E14.66060
G1 X127.349 Y75.069 E14.74089
G1 X128.582 Y74.128 E14.88197
G1 X130.848 Y72.751 E15.12308
G1 X131.983 Y72.210 E15.23737
G1 X133.213 Y71.716 E15.35789
G1 X135.579 Y71.014 E15.58232
G1 X138.120 Y70.605 E15.81635
G1 X140.000 Y70.513 E15.98753
G1 X141.796 Y70.601 E16.15106
G1 X144.447 Y71.020 E16.39506
G1 X146.931 Y71.767 E16.63096
G1 X148.015 Y72.209 E16.73740
G1 X149.142 Y72.745 E16.85084
G1 X151.418 Y74.128 E17.09305
G1 X152.636 Y75.057 E17.23231
G1 X153.321 Y75.645 E17.31442
G1 X155.151 Y77.531 E17.55336
G1 X156.664 Y79.565 E17.78385
G1 X157.756 Y81.462 E17.98291
G1 X157.918 Y81.783 E18.01559
G1 X158.865 Y84.128 E18.24555
G1 X159.519 Y86.611 E18.47906
G1 X159.845 Y89.148 E18.71160
G1 X159.845 Y91.699 E18.94356
G1 X159.501 Y94.326 E19.18450
G1 X158.393 Y99.203 E19.63923
G1 X157.327 Y103.661 E20.05601
G1 X157.135 Y104.394 E20.12494
G1 X156.283 Y106.945 E20.36953
G1 X155.127 Y109.263 E20.60506
G1 X153.624 Y111.415 E20.84369
G1 X151.835 Y113.312 E21.08081
G1 X149.802 Y114.922 E21.31660
G1 X147.533 Y116.230 E21.55481
G1 X145.108 Y117.190 E21.79190
G1 X142.686 Y117.762 E22.01821
G1 X142.579 Y117.785 E22.02818
G1 X140.000 Y118.007 E22.26354
G1 X137.421 Y117.785 E22.49889
G1 X137.314 Y117.762 E22.50886
G1 X134.892 Y117.190 E22.73518
G1 X132.467 Y116.230 E22.97227
G1 X130.209 Y114.928 E23.20930
G1 X128.164 Y113.312 E23.44633
G1 X126.365 Y111.403 E23.68483
G1 X124.884 Y109.279 E23.92031
G1 X123.706 Y106.923 E24.15982
G1 X122.855 Y104.357 E24.40564
G1 X121.606 Y99.202 E24.88794
G1 X120.484 Y94.246 E25.34998
G1 X120.155 Y91.700 E25.58343
G1 X120.155 Y89.148 E25.81546
G1 X120.484 Y86.588 E26.05010
G1 X121.103 Y84.225 E26.27222
G1 X121.213 Y83.903 E26.30324
G1 X122.083 Y81.783 E26.51156
G1 X122.241 Y81.469 E26.54350
G1 X123.280 Y79.662 E26.73313
G1 X122.776 Y79.285 F7800.000
G1 F1800
G1 X124.363 Y77.136 E26.97604
G1 X126.250 Y75.189 E27.22256
G1 X126.955 Y74.584 E27.30708
G1 X128.229 Y73.611 E27.45282
G1 X130.551 Y72.201 E27.69981
G1 X131.731 Y71.637 E27.81877
G1 X133.007 Y71.125 E27.94374
G1 X135.440 Y70.403 E28.17449
G1 X138.055 Y69.983 E28.41534
G1 X140.000 Y69.888 E28.59244
G1 X141.861 Y69.978 E28.76182
G1 X144.586 Y70.410 E29.01275
G1 X147.140 Y71.177 E29.25520
G1 X148.268 Y71.637 E29.36597
G1 X149.439 Y72.195 E29.48392
G1 X151.771 Y73.611 E29.73202
G1 X153.029 Y74.571 E29.87592
G1 X153.750 Y75.189 E29.96228
G1 X155.628 Y77.125 E30.20752
G1 X157.187 Y79.221 E30.44508
G1 X158.306 Y81.166 E30.64902
G1 X158.486 Y81.523 E30.68547
G1 X159.372 Y83.684 E30.89781
G1 X159.463 Y83.945 E30.92294
G1 X160.134 Y86.491 E31.16239
G1 X160.470 Y89.108 E31.40225
G1 X160.470 Y91.739 E31.64154
G1 X160.117 Y94.436 E31.88884
G1 X159.002 Y99.345 E32.34654
G1 X157.934 Y103.813 E32.76427
G1 X157.734 Y104.572 E32.83569
G1 X156.862 Y107.185 E33.08609
G1 X155.659 Y109.593 E33.33089
G1 X154.110 Y111.810 E33.57681
G1 X152.259 Y113.774 E33.82219
G1 X150.147 Y115.445 E34.06709
G1 X147.805 Y116.794 E34.31286
G1 X145.296 Y117.788 E34.55822
G1 X142.824 Y118.372 E34.78917
G1 X142.672 Y118.405 E34.80331
G1 X140.000 Y118.634 E35.04719
G1 X137.328 Y118.405 E35.29108
G1 X137.176 Y118.372 E35.30522
G1 X134.704 Y117.788 E35.53616
G1 X132.195 Y116.794 E35.78153
G1 X129.857 Y115.447 E36.02688
G1 X127.741 Y113.773 E36.27222
G1 X125.886 Y111.806 E36.51809
G1 X124.345 Y109.598 E36.76288
G1 X123.134 Y107.176 E37.00911
G1 X122.254 Y104.528 E37.26290
G1 X120.998 Y99.344 E37.74786
G1 X119.868 Y94.355 E38.21303
G1 X119.530 Y91.740 E38.45281
G1 X119.530 Y89.108 E38.69212
G1 X119.870 Y86.469 E38.93405
G1 X120.504 Y84.045 E39.16190
G1 X120.628 Y83.683 E39.19670
G1 X121.514 Y81.523 E39.40894
G1 X121.690 Y81.173 E39.44465
G1 X122.739 Y79.350 E39.63584
G1 X122.850 Y79.285 F7800.000
G1 E37.63584 F2400.00000
G92 E0
G1 X127.295 Y76.797 F7800.000
G1 E2.00000 F2400.00000
G1 F1800
G1 X127.781 Y76.311 E2.06258
G1 X128.379 Y75.798 E2.13433
G1 X129.531 Y74.919 E2.26626
G1 X130.876 Y74.101 E2.40963
G1 X123.676 Y81.302 E3.33676
G1 X123.098 Y82.306 E3.44223
G1 X122.977 Y82.545 E3.46664
G1 X122.741 Y83.121 E3.52327
G1 X132.765 Y73.097 E4.81388
G1 X133.867 Y72.654 E4.92201
G1 X134.188 Y72.559 E4.95244
G1 X122.130 Y84.617 E6.50490
G1 X122.057 Y84.829 E6.52537
G1 X121.793 Y85.839 E6.62034
G1 X135.446 Y72.186 E8.37823
G1 X136.100 Y71.992 E8.44033
G1 X136.606 Y71.910 E8.48703
G1 X121.479 Y87.037 E10.43475
G1 X121.344 Y88.058 E10.52847
G1 X137.661 Y71.741 E12.62939
G1 X138.493 Y71.607 E12.70612
G1 X138.689 Y71.597 E12.72400
G1 X121.213 Y89.073 E14.97411
G1 X121.162 Y89.471 E15.01063
G1 X121.162 Y90.009 E15.05962
G1 X139.619 Y71.552 E17.43610
G1 X140.243 Y71.521 E17.49297
G1 X140.521 Y71.535 E17.51830
G1 X121.162 Y90.894 E20.01089
G1 X121.162 Y91.779 E20.09145
G1 X141.365 Y71.576 E22.69266
G1 X141.911 Y71.603 E22.74245
G1 X142.180 Y71.645 E22.76728
G1 X121.254 Y92.572 E25.46173
G1 X121.355 Y93.356 E25.53368
G1 X142.944 Y71.766 E28.31348
G1 X143.708 Y71.887 E28.38390
G1 X121.456 Y94.140 E31.24906
G1 X121.609 Y94.871 E31.31713
G1 X144.465 Y72.015 E34.26008
G1 X145.146 Y72.219 E34.32476
G1 X121.772 Y95.593 E37.33427
G1 X121.936 Y96.314 E37.40161
G1 X145.826 Y72.424 E40.47768
G1 X146.506 Y72.628 E40.54236
G1 X122.099 Y97.036 E43.68498
G1 X122.262 Y97.757 E43.75232
G1 X147.154 Y72.865 E46.95730
G1 X147.781 Y73.123 E47.01904
G1 X122.426 Y98.479 E50.28373
G1 X122.590 Y99.199 E50.35104
G1 X148.381 Y73.409 E53.67180
G1 X148.790 Y73.603 E53.71306
G1 X148.965 Y73.710 E53.73167
G1 X122.762 Y99.912 E57.10538
G1 X122.935 Y100.624 E57.17210
G1 X149.515 Y74.044 E60.59447
G1 X150.066 Y74.378 E60.65311
G1 X123.107 Y101.336 E64.12415
G1 X123.280 Y102.049 E64.19088
G1 X150.616 Y74.713 E67.71058
G1 X150.956 Y74.919 E67.74679
G1 X151.148 Y75.065 E67.76878
G1 X123.453 Y102.761 E71.33475
G1 X123.625 Y103.473 E71.40148
G1 X151.650 Y75.448 E75.00988
G1 X152.149 Y75.834 E75.06730
G1 X123.798 Y104.185 E78.71772
G1 X124.013 Y104.855 E78.78177
G1 X152.625 Y76.243 E82.46580
G1 X153.068 Y76.685 E82.52277
G1 X124.233 Y105.520 E86.23549
G1 X124.452 Y106.185 E86.29926
G1 X153.504 Y77.134 E90.03980
G1 X153.939 Y77.583 E90.09677
G1 X124.692 Y106.830 E93.86253
G1 X124.987 Y107.420 E93.92257
G1 X154.375 Y78.032 E97.70646
G1 X154.761 Y78.531 E97.76388
G1 X125.282 Y108.010 E101.55950
G1 X125.577 Y108.600 E101.61955
G1 X155.139 Y79.038 E105.42578
G1 X155.516 Y79.546 E105.48336
G1 X125.908 Y109.154 E109.29561
G1 X126.271 Y109.676 E109.35348
G1 X155.889 Y80.058 E113.16694
G1 X156.212 Y80.620 E113.22594
G1 X126.634 Y110.197 E117.03424
G1 X126.998 Y110.719 E117.09211
G1 X156.535 Y81.182 E120.89524
G1 X156.858 Y81.743 E120.95424
G1 X127.411 Y111.191 E124.74580
G1 X127.840 Y111.646 E124.80279
G1 X157.139 Y82.347 E128.57527
G1 X157.394 Y82.977 E128.63713
G1 X128.269 Y112.102 E132.38717
G1 X128.698 Y112.557 E132.44416
G1 X157.649 Y83.606 E136.17178
G1 X157.905 Y84.236 E136.23364
G1 X129.182 Y112.959 E139.93183
G1 X129.676 Y113.349 E139.98918
G1 X158.092 Y84.933 E143.64791
G1 X158.277 Y85.634 E143.71385
G1 X130.171 Y113.740 E147.33271
G1 X130.665 Y114.131 E147.39006
G1 X158.461 Y86.334 E150.96904
G1 X158.533 Y86.608 E150.99480
G1 X158.594 Y87.086 E151.03866
G1 X131.225 Y114.455 E154.56262
G1 X131.787 Y114.778 E154.62160
G1 X158.695 Y87.870 E158.08623
G1 X158.796 Y88.654 E158.15822
G1 X132.348 Y115.102 E161.56353
G1 X132.769 Y115.345 E161.60781
G1 X132.927 Y115.407 E161.62328
G1 X158.838 Y89.497 E164.95944
G1 X158.838 Y90.382 E165.04000
G1 X133.561 Y115.658 E168.29453
G1 X134.195 Y115.909 E168.35660
G1 X158.838 Y91.266 E171.52951
G1 X158.838 Y91.374 E171.53934
G1 X158.721 Y92.268 E171.62141
G1 X134.829 Y116.160 E174.69765
G1 X135.024 Y116.237 E174.71677
G1 X135.520 Y116.354 E174.76311
G1 X158.588 Y93.286 E177.73327
G1 X158.512 Y93.863 E177.78626
G1 X158.400 Y94.359 E177.83256
G1 X136.236 Y116.523 E180.68631
G1 X136.952 Y116.692 E180.75328
G1 X158.140 Y95.504 E183.48137
G1 X157.880 Y96.649 E183.58826
G1 X137.709 Y116.820 E186.18539
G1 X138.524 Y116.890 E186.25985
G1 X157.620 Y97.794 E188.71858
G1 X157.356 Y98.943 E188.82592
G1 X139.339 Y116.959 E191.14570
G1 X139.756 Y116.995 E191.18382
G1 X140.230 Y116.953 E191.22715
G1 X157.077 Y100.106 E193.39638
G1 X156.799 Y101.269 E193.50524
G1 X141.201 Y116.867 E195.51360
G1 X142.173 Y116.780 E195.60238
G1 X156.521 Y102.431 E197.44987
G1 X156.228 Y103.610 E197.56043
G1 X143.325 Y116.513 E199.22175
G1 X144.484 Y116.239 E199.33014
G1 X155.804 Y104.918 E200.78773
G1 X155.354 Y106.254 E200.91604
G1 X145.947 Y115.661 E202.12724
G1 X146.744 Y115.345 E202.20528
G1 X147.705 Y114.787 E202.30643
G1 X154.480 Y108.013 E203.17874
G1 X154.328 Y108.317 E203.20967
G1 X152.894 Y110.382 E203.43855
G1 X151.233 Y112.144 E203.65905
G1 X150.744 Y112.633 E203.72202
G1 Z0.350 F7800.000
G1 Z0.550 F7800.000
G1 X123.762 Y79.857 F7800.000
G1 F3600
G1 X125.153 Y77.961 E203.87984
G1 X126.681 Y76.369 E204.02792
G1 X127.136 Y75.919 E204.07085
G1 X127.707 Y75.429 E204.12135
G1 X128.767 Y74.623 E204.21075
G1 X131.135 Y73.176 E204.39694
G1 X132.153 Y72.688 E204.47270
G1 X133.072 Y72.313 E204.53932
G1 X133.544 Y72.145 E204.57293
G1 X135.658 Y71.517 E204.72094
G1 X138.173 Y71.118 E204.89186
G1 X140.000 Y71.028 E205.01461
G1 X141.839 Y71.118 E205.13818
G1 X142.243 Y71.175 E205.16551
G1 X144.424 Y71.537 E205.31387
G1 X146.457 Y72.145 E205.45627
G1 X146.886 Y72.297 E205.48687
G1 X147.850 Y72.689 E205.55667
G1 X148.818 Y73.151 E205.62865
G1 X151.275 Y74.652 E205.82187
G1 X152.290 Y75.427 E205.90758
G1 X152.899 Y75.951 E205.96147
G1 X154.794 Y77.896 E206.14373
G1 X156.233 Y79.847 E206.30643
G1 X157.306 Y81.697 E206.44992
G1 X157.472 Y82.028 E206.47476
G1 X158.225 Y83.869 E206.60829
G1 X158.388 Y84.321 E206.64052
G1 X158.482 Y84.620 E206.66156
G1 X159.015 Y86.687 E206.80477
G1 X159.330 Y89.179 E206.97337
G1 X159.330 Y91.667 E207.14034
G1 X159.005 Y94.188 E207.31089
G1 X158.021 Y98.550 E207.61098
G1 X157.116 Y102.336 E207.87225
G1 X156.631 Y104.181 E208.00023
G1 X155.939 Y106.271 E208.14802
G1 X155.747 Y106.766 E208.18361
G1 X154.608 Y109.027 E208.35352
G1 X153.163 Y111.086 E208.52234
G1 X151.410 Y112.933 E208.69324
G1 X149.451 Y114.476 E208.86062
G1 X147.249 Y115.738 E209.03093
G1 X144.903 Y116.661 E209.20008
G1 X142.798 Y117.158 E209.34523
G1 X142.464 Y117.231 E209.36816
G1 X140.000 Y117.441 E209.53414
G1 X137.536 Y117.231 E209.70011
G1 X137.202 Y117.158 E209.72304
G1 X135.097 Y116.661 E209.86819
G1 X132.751 Y115.738 E210.03734
G1 X130.567 Y114.486 E210.20631
G1 X128.587 Y112.931 E210.37528
G1 X126.837 Y111.086 E210.54592
G1 X125.392 Y109.027 E210.71473
G1 X125.228 Y108.727 E210.73770
G1 X124.253 Y106.766 E210.88466
G1 X124.061 Y106.271 E210.92025
G1 X123.369 Y104.180 E211.06809
G1 X123.103 Y103.172 E211.13805
G1 X121.979 Y98.548 E211.45737
G1 X120.992 Y94.161 E211.75919
G1 X120.670 Y91.667 E211.92791
G1 X120.670 Y89.183 E212.09464
G1 X121.017 Y86.528 E212.27431
G1 X121.523 Y84.600 E212.40808
G1 X121.775 Y83.871 E212.45981
G1 X122.559 Y81.959 E212.59850
G1 X122.691 Y81.703 E212.61785
G1 X123.724 Y79.922 E212.75603
G1 X123.064 Y79.452 F7800.000
G1 F3600
G1 X124.534 Y77.440 E212.92325
G1 X126.106 Y75.803 E213.07557
G1 X126.589 Y75.325 E213.12115
G1 X127.200 Y74.801 E213.17518
G1 X128.311 Y73.955 E213.26890
G1 X130.749 Y72.466 E213.46060
G1 X131.826 Y71.950 E213.54072
G1 X132.784 Y71.559 E213.61017
G1 X133.293 Y71.377 E213.64645
G1 X135.479 Y70.728 E213.79949
G1 X138.090 Y70.314 E213.97691
G1 X140.000 Y70.220 E214.10524
G1 X141.917 Y70.314 E214.23401
G1 X142.365 Y70.377 E214.26441
G1 X144.606 Y70.749 E214.41685
G1 X146.707 Y71.377 E214.56402
G1 X147.174 Y71.543 E214.59723
G1 X148.176 Y71.951 E214.66984
G1 X149.202 Y72.440 E214.74613
G1 X151.747 Y73.997 E214.94635
G1 X152.799 Y74.800 E215.03516
G1 X153.452 Y75.362 E215.09300
G1 X155.411 Y77.372 E215.28136
G1 X156.909 Y79.404 E215.45074
G1 X158.017 Y81.313 E215.59888
G1 X158.207 Y81.694 E215.62745
G1 X158.978 Y83.580 E215.76417
G1 X159.152 Y84.062 E215.79861
G1 X159.258 Y84.397 E215.82220
G1 X159.809 Y86.535 E215.97031
G1 X160.137 Y89.128 E216.14575
G1 X160.137 Y91.719 E216.31960
G1 X159.802 Y94.315 E216.49528
G1 X158.807 Y98.733 E216.79919
G1 X157.899 Y102.533 E217.06137
G1 X157.395 Y104.449 E217.19432
G1 X156.700 Y106.543 E217.34240
G1 X156.486 Y107.092 E217.38195
G1 X155.488 Y109.100 E217.53240
G1 X155.296 Y109.452 E217.55934
G1 X153.781 Y111.607 E217.73613
G1 X151.956 Y113.530 E217.91401
G1 X149.895 Y115.152 E218.09005
G1 X147.599 Y116.468 E218.26763
G1 X145.145 Y117.433 E218.44460
G1 X142.977 Y117.945 E218.59410
G1 X142.585 Y118.031 E218.62102
G1 X140.000 Y118.251 E218.79511
G1 X137.415 Y118.031 E218.96921
G1 X137.023 Y117.945 E218.99613
G1 X134.855 Y117.433 E219.14563
G1 X132.401 Y116.468 E219.32260
G1 X130.114 Y115.157 E219.49948
G1 X128.042 Y113.529 E219.67635
G1 X126.219 Y111.607 E219.85410
G1 X124.704 Y109.452 E220.03089
G1 X124.512 Y109.100 E220.05782
G1 X123.514 Y107.092 E220.20827
G1 X123.300 Y106.543 E220.24782
G1 X122.605 Y104.448 E220.39593
G1 X122.321 Y103.370 E220.47077
G1 X121.193 Y98.732 E220.79108
G1 X120.196 Y94.301 E221.09588
G1 X119.863 Y91.719 E221.27060
G1 X119.863 Y89.130 E221.44433
G1 X120.224 Y86.373 E221.63096
G1 X120.748 Y84.374 E221.76963
G1 X121.021 Y83.581 E221.82595
G1 X121.825 Y81.622 E221.96802
G1 X121.982 Y81.316 E221.99106
G1 X123.026 Y79.517 E222.13070
G1 X122.517 Y79.134 F7800.000
G1 F1800
G1 X124.050 Y77.033 E222.22957
G1 X125.656 Y75.359 E222.31772
G1 X126.160 Y74.860 E222.34471
G1 X126.803 Y74.309 E222.37686
G1 X127.954 Y73.433 E222.43187
G1 X130.447 Y71.910 E222.54288
G1 X131.569 Y71.372 E222.59018
G1 X132.558 Y70.968 E222.63077
G1 X133.097 Y70.776 E222.65251
G1 X135.339 Y70.110 E222.74141
G1 X138.025 Y69.684 E222.84477
G1 X140.000 Y69.587 E222.91993
G1 X141.977 Y69.684 E222.99515
G1 X142.461 Y69.753 E223.01374
G1 X144.749 Y70.132 E223.10187
G1 X146.903 Y70.776 E223.18734
G1 X147.398 Y70.952 E223.20730
G1 X148.431 Y71.372 E223.24968
G1 X149.503 Y71.883 E223.29479
G1 X152.117 Y73.484 E223.41129
G1 X153.197 Y74.309 E223.46295
G1 X153.885 Y74.901 E223.49747
G1 X155.894 Y76.962 E223.60685
G1 X157.438 Y79.057 E223.70574
G1 X158.573 Y81.013 E223.79170
G1 X158.783 Y81.432 E223.80953
G1 X159.568 Y83.353 E223.88837
G1 X159.751 Y83.860 E223.90886
G1 X159.866 Y84.223 E223.92335
G1 X160.431 Y86.416 E224.00941
G1 X160.769 Y89.088 E224.11180
G1 X160.769 Y91.759 E224.21331
G1 X160.426 Y94.415 E224.31507
G1 X159.423 Y98.877 E224.48888
G1 X158.512 Y102.687 E224.63777
G1 X157.993 Y104.659 E224.71527
G1 X157.937 Y104.787 E224.72058
G1 X157.295 Y106.756 E224.79929
G1 X157.065 Y107.348 E224.82345
G1 X156.049 Y109.392 E224.91020
G1 X155.834 Y109.785 E224.92721
G1 X154.533 Y111.658 E225.01390
G1 X154.265 Y112.015 E225.03088
G1 X152.384 Y113.998 E225.13472
G1 X150.242 Y115.681 E225.23826
G1 X147.873 Y117.039 E225.34205
G1 X145.334 Y118.038 E225.44575
G1 X143.117 Y118.562 E225.53235
G1 X142.679 Y118.657 E225.54936
G1 X140.000 Y118.886 E225.65156
G1 X137.321 Y118.657 E225.75376
G1 X136.883 Y118.562 E225.77077
G1 X134.666 Y118.038 E225.85737
G1 X132.127 Y117.039 E225.96106
G1 X129.760 Y115.683 E226.06474
G1 X127.615 Y113.997 E226.16842
G1 X125.735 Y112.015 E226.27223
G1 X125.468 Y111.658 E226.28922
G1 X124.166 Y109.785 E226.37590
G1 X123.951 Y109.392 E226.39291
G1 X122.935 Y107.348 E226.47967
G1 X122.705 Y106.756 E226.50383
G1 X122.063 Y104.787 E226.58253
G1 X122.007 Y104.659 E226.58785
G1 X121.708 Y103.525 E226.63239
G1 X120.577 Y98.876 E226.81424
G1 X119.573 Y94.411 E226.98819
G1 X119.231 Y91.759 E227.08980
G1 X119.231 Y89.089 E227.19129
G1 X119.602 Y86.251 E227.30007
G1 X120.141 Y84.197 E227.38078
G1 X120.432 Y83.353 E227.41471
G1 X121.251 Y81.358 E227.49667
G1 X121.426 Y81.014 E227.51136
G1 X122.479 Y79.199 E227.59109
G1 X122.607 Y79.135 F7800.000
G1 X152.665 Y76.859 F7800.000
G1 F1200
G1 X152.030 Y76.225 E227.65210
G1 X151.470 Y75.742 E227.70243
G1 X150.360 Y74.906 E227.79694
G1 X148.314 Y73.665 E227.95970
G1 X156.725 Y82.076 E228.76887
G1 X157.050 Y82.675 E228.81521
G1 X157.661 Y84.169 E228.92502
G1 X146.198 Y72.707 E230.02775
G1 X145.892 Y72.598 E230.04984
G1 X144.524 Y72.189 E230.14700
G1 X158.204 Y85.869 E231.46302
G1 X158.534 Y87.152 E231.55317
G1 X158.564 Y87.386 E231.56920
G1 X143.042 Y71.864 E233.06246
G1 X141.659 Y71.638 E233.15777
G1 X158.731 Y88.710 E234.80017
G1 X158.837 Y89.544 E234.85731
G1 X158.837 Y89.973 E234.88649
G1 X140.422 Y71.558 E236.65804
G1 X139.687 Y71.522 E236.70812
G1 X139.250 Y71.544 E236.73783
G1 X158.837 Y91.130 E238.62207
G1 X158.837 Y91.927 E238.67632
G1 X158.794 Y92.244 E238.69808
G1 X138.148 Y71.598 E240.68435
G1 X137.943 Y71.608 E240.69830
G1 X137.130 Y71.737 E240.75430
G1 X158.658 Y93.265 E242.82539
G1 X158.522 Y94.286 E242.89544
G1 X136.131 Y71.895 E245.04947
G1 X135.523 Y71.992 E245.09136
G1 X135.174 Y72.095 E245.11611
G1 X158.328 Y95.249 E247.34360
G1 X158.114 Y96.192 E247.40937
G1 X134.282 Y72.360 E249.70208
G1 X133.394 Y72.629 E249.76520
G1 X157.900 Y97.135 E252.12275
G1 X157.686 Y98.078 E252.18852
G1 X132.560 Y72.952 E254.60572
G1 X132.166 Y73.112 E254.63462
G1 X131.759 Y73.308 E254.66537
G1 X157.468 Y99.017 E257.13871
G1 X157.245 Y99.951 E257.20402
G1 X130.996 Y73.702 E259.72929
G1 X130.277 Y74.140 E259.78654
G1 X157.022 Y100.885 E262.35944
G1 X156.799 Y101.819 E262.42474
G1 X129.559 Y74.579 E265.04525
G1 X128.847 Y75.024 E265.10238
G1 X156.570 Y102.747 E267.76941
G1 X156.329 Y103.663 E267.83385
G1 X128.190 Y75.524 E270.54092
G1 X127.552 Y76.043 E270.59686
G1 X156.072 Y104.563 E273.34061
G1 X155.784 Y105.432 E273.40290
G1 X126.958 Y76.606 E276.17609
G1 X126.391 Y77.196 E276.23175
G1 X155.497 Y106.302 E279.03182
G1 X155.322 Y106.753 E279.06474
G1 X155.146 Y107.107 E279.09167
G1 X125.824 Y77.786 E281.91246
G1 X125.458 Y78.168 E281.94843
G1 X125.285 Y78.404 E281.96835
G1 X154.762 Y107.880 E284.80409
G1 X154.378 Y108.653 E284.86280
G1 X124.795 Y79.071 E287.70875
G1 X124.305 Y79.737 E287.76505
G1 X153.925 Y109.357 E290.61457
G1 X153.447 Y110.037 E290.67107
G1 X123.857 Y80.446 E293.51779
G1 X123.432 Y81.178 E293.57537
G1 X152.970 Y110.717 E296.41705
G1 X152.850 Y110.887 E296.43123
G1 X152.428 Y111.332 E296.47293
G1 X123.013 Y81.917 E299.30276
G1 X122.672 Y82.732 E299.36291
G1 X151.865 Y111.926 E302.17140
G1 X151.302 Y112.520 E302.22708
G1 X122.335 Y83.553 E305.01378
G1 X122.021 Y84.396 E305.07499
G1 X150.675 Y113.050 E307.83155
G1 X150.030 Y113.561 E307.88757
G1 X121.776 Y85.307 E310.60572
G1 X121.535 Y86.224 E310.67018
G1 X149.381 Y114.069 E313.34901
G1 X148.652 Y114.498 E313.40651
G1 X121.384 Y87.230 E316.02973
G1 X121.251 Y88.253 E316.09993
G1 X147.917 Y114.919 E318.66526
G1 X147.177 Y115.336 E318.72303
G1 X121.163 Y89.323 E321.22562
G1 X121.163 Y90.480 E321.30432
G1 X146.347 Y115.663 E323.72702
G1 X145.516 Y115.990 E323.78772
G1 X121.213 Y91.687 E326.12575
G1 X121.384 Y93.015 E326.21686
G1 X144.649 Y116.280 E328.45499
G1 X143.713 Y116.501 E328.52041
G1 X121.635 Y94.422 E330.64445
G1 X121.970 Y95.914 E330.74853
G1 X142.775 Y116.719 E332.75002
G1 X142.657 Y116.745 E332.75821
G1 X141.724 Y116.825 E332.82197
G1 X122.306 Y97.407 E334.69001
G1 X122.662 Y98.920 E334.79576
G1 X140.658 Y116.916 E336.52699
G1 X140.314 Y116.945 E336.55046
G1 X139.457 Y116.872 E336.60898
G1 X123.034 Y100.449 E338.18892
G1 X123.406 Y101.978 E338.29594
G1 X138.192 Y116.764 E339.71841
G1 X137.977 Y116.746 E339.73310
G1 X136.723 Y116.453 E339.82064
G1 X123.801 Y103.530 E341.06383
G1 X124.362 Y105.249 E341.18680
G1 X135.098 Y115.985 E342.21964
G1 X133.415 Y115.323 E342.34266
G1 X133.097 Y115.140 E342.36762
G1 X125.283 Y107.326 E343.11935
G1 X125.772 Y108.298 E343.19336
G1 X127.150 Y110.260 E343.35643
G1 X128.814 Y112.015 E343.52098
G1 X129.442 Y112.642 E343.58137
G1 Z0.700 F7800.000
G1 Z0.750 F7800.000
G1 X123.619 Y79.808 F7800.000
G1 F3600
G1 X123.843 Y79.469 E343.60867
G1 X125.104 Y77.782 E343.75000
G1 X126.390 Y76.454 E343.87402
G1 X127.111 Y75.740 E343.94214
G1 X127.630 Y75.296 E343.98797
G1 X128.609 Y74.553 E344.07044
G1 X131.099 Y73.027 E344.26639
G1 X132.096 Y72.548 E344.34064
G1 X132.945 Y72.204 E344.40213
G1 X133.635 Y71.959 E344.45124
G1 X135.600 Y71.375 E344.58884
G1 X138.158 Y70.973 E344.76263
G1 X140.000 Y70.882 E344.88640
G1 X141.853 Y70.974 E345.01090
G1 X144.383 Y71.369 E345.18270
G1 X146.363 Y71.958 E345.32136
G1 X147.055 Y72.203 E345.37060
G1 X147.940 Y72.564 E345.43474
G1 X148.800 Y72.972 E345.49862
G1 X151.445 Y74.590 E345.70670
G1 X152.337 Y75.270 E345.78200
G1 X152.949 Y75.796 E345.83612
G1 X154.914 Y77.804 E346.02470
G1 X156.159 Y79.471 E346.16430
G1 X156.346 Y79.751 E346.18688
G1 X157.434 Y81.614 E346.33169
G1 X157.620 Y81.990 E346.35983
G1 X158.300 Y83.655 E346.48053
G1 X158.526 Y84.278 E346.52499
G1 X158.682 Y84.771 E346.55970
G1 X159.153 Y86.599 E346.68640
G1 X159.475 Y89.169 E346.86019
G1 X159.475 Y91.677 E347.02850
G1 X159.147 Y94.215 E347.20028
G1 X158.256 Y98.193 E347.47381
G1 X157.466 Y101.498 E347.70190
G1 X156.737 Y104.256 E347.89335
G1 X156.692 Y104.348 E347.90017
G1 X156.123 Y106.096 E348.02354
G1 X155.825 Y106.861 E348.07864
G1 X154.938 Y108.646 E348.21244
G1 X154.674 Y109.128 E348.24930
G1 X153.543 Y110.756 E348.38230
G1 X153.214 Y111.195 E348.41917
G1 X151.858 Y112.641 E348.55217
G1 X151.469 Y113.029 E348.58903
G1 X149.477 Y114.590 E348.75888
G1 X147.283 Y115.844 E348.92844
G1 X144.910 Y116.773 E349.09949
G1 X142.995 Y117.226 E349.23157
G1 X142.459 Y117.342 E349.26839
G1 X140.000 Y117.552 E349.43397
G1 X137.541 Y117.342 E349.59956
G1 X137.005 Y117.226 E349.63638
G1 X135.090 Y116.773 E349.76846
G1 X132.717 Y115.844 E349.93951
G1 X130.523 Y114.590 E350.10907
G1 X130.083 Y114.261 E350.14593
G1 X128.531 Y113.029 E350.27893
G1 X128.142 Y112.641 E350.31579
G1 X126.786 Y111.195 E350.44879
G1 X126.457 Y110.756 E350.48565
G1 X125.326 Y109.128 E350.61865
G1 X125.062 Y108.646 E350.65552
G1 X124.175 Y106.861 E350.78932
G1 X123.877 Y106.096 E350.84442
G1 X123.308 Y104.348 E350.96779
G1 X123.263 Y104.256 E350.97466
G1 X122.725 Y102.228 E351.11542
G1 X121.743 Y98.189 E351.39441
G1 X121.008 Y94.971 E351.61590
G1 X120.851 Y94.204 E351.66843
G1 X120.525 Y91.677 E351.83946
G1 X120.525 Y89.169 E352.00777
G1 X120.875 Y86.457 E352.19124
G1 X121.327 Y84.736 E352.31070
G1 X121.530 Y84.109 E352.35492
G1 X122.427 Y81.886 E352.51576
G1 X122.561 Y81.623 E352.53559
G1 X123.580 Y79.872 E352.67153
G1 X122.930 Y79.387 F7800.000
G1 F3600
G1 X123.183 Y79.003 E352.70238
G1 X124.507 Y77.239 E352.85039
G1 X125.816 Y75.887 E352.97671
G1 X126.564 Y75.146 E353.04736
G1 X127.123 Y74.668 E353.09674
G1 X128.153 Y73.886 E353.18349
G1 X130.712 Y72.318 E353.38491
G1 X131.769 Y71.810 E353.46360
G1 X132.658 Y71.449 E353.52800
G1 X133.385 Y71.191 E353.57974
G1 X135.422 Y70.586 E353.72234
G1 X138.076 Y70.169 E353.90262
G1 X140.000 Y70.074 E354.03194
G1 X141.931 Y70.169 E354.16164
G1 X144.540 Y70.577 E354.33888
G1 X146.614 Y71.191 E354.48404
G1 X147.342 Y71.449 E354.53585
G1 X148.266 Y71.825 E354.60278
G1 X149.183 Y72.261 E354.67095
G1 X151.648 Y73.754 E354.86437
G1 X151.915 Y73.933 E354.88595
G1 X152.845 Y74.643 E354.96445
G1 X153.501 Y75.207 E355.02250
G1 X155.528 Y77.278 E355.21703
G1 X156.818 Y79.005 E355.36161
G1 X157.026 Y79.315 E355.38671
G1 X157.351 Y79.848 E355.42857
G1 X158.146 Y81.234 E355.53579
G1 X158.356 Y81.657 E355.56753
G1 X159.053 Y83.364 E355.69127
G1 X159.291 Y84.018 E355.73792
G1 X159.458 Y84.546 E355.77515
G1 X159.950 Y86.470 E355.90837
G1 X160.282 Y89.118 E356.08751
G1 X160.282 Y91.729 E356.26267
G1 X159.945 Y94.343 E356.43958
G1 X159.042 Y98.376 E356.71693
G1 X158.249 Y101.695 E356.94597
G1 X157.497 Y104.541 E357.14347
G1 X157.441 Y104.652 E357.15183
G1 X156.883 Y106.367 E357.27285
G1 X156.564 Y107.187 E357.33191
G1 X155.653 Y109.019 E357.46920
G1 X155.362 Y109.553 E357.51003
G1 X154.198 Y111.228 E357.64690
G1 X153.833 Y111.715 E357.68773
G1 X152.437 Y113.202 E357.82460
G1 X152.007 Y113.632 E357.86542
G1 X150.410 Y114.900 E358.00229
G1 X149.923 Y115.265 E358.04312
G1 X147.625 Y116.577 E358.22065
G1 X145.151 Y117.545 E358.39897
G1 X143.173 Y118.013 E358.53536
G1 X142.579 Y118.142 E358.57616
G1 X140.000 Y118.362 E358.74987
G1 X137.421 Y118.142 E358.92358
G1 X136.827 Y118.013 E358.96438
G1 X134.849 Y117.545 E359.10077
G1 X132.375 Y116.577 E359.27908
G1 X130.077 Y115.265 E359.45661
G1 X129.590 Y114.900 E359.49744
G1 X127.993 Y113.632 E359.63431
G1 X127.563 Y113.202 E359.67514
G1 X126.167 Y111.715 E359.81201
G1 X125.802 Y111.228 E359.85284
G1 X124.638 Y109.553 E359.98971
G1 X124.347 Y109.019 E360.03053
G1 X123.436 Y107.187 E360.16782
G1 X123.117 Y106.367 E360.22689
G1 X122.559 Y104.652 E360.34791
G1 X122.503 Y104.540 E360.35629
G1 X121.943 Y102.427 E360.50301
G1 X120.957 Y98.374 E360.78294
G1 X120.220 Y95.142 E361.00541
G1 X120.055 Y94.337 E361.06055
G1 X119.718 Y91.729 E361.23706
G1 X119.718 Y89.118 E361.41222
G1 X120.050 Y86.470 E361.59136
G1 X120.089 Y86.276 E361.60465
G1 X120.552 Y84.508 E361.72726
G1 X120.768 Y83.843 E361.77422
G1 X120.945 Y83.369 E361.80817
G1 X121.693 Y81.548 E361.94026
G1 X121.852 Y81.238 E361.96363
G1 X122.891 Y79.451 E362.10237
G1 X122.391 Y79.058 F7800.000
G1 F1800
G1 X122.667 Y78.639 E362.12142
G1 X123.886 Y76.993 E362.19929
G1 X124.039 Y76.814 E362.20822
G1 X125.367 Y75.442 E362.28078
G1 X126.136 Y74.681 E362.32192
G1 X126.726 Y74.175 E362.35145
G1 X127.796 Y73.363 E362.40248
G1 X130.409 Y71.762 E362.51898
G1 X131.513 Y71.232 E362.56552
G1 X132.433 Y70.858 E362.60327
G1 X133.189 Y70.590 E362.63374
G1 X135.282 Y69.968 E362.71672
G1 X138.011 Y69.539 E362.82171
G1 X140.000 Y69.442 E362.89741
G1 X141.991 Y69.540 E362.97316
G1 X144.663 Y69.957 E363.07595
G1 X146.811 Y70.590 E363.16105
G1 X147.567 Y70.858 E363.19153
G1 X148.521 Y71.246 E363.23067
G1 X149.483 Y71.704 E363.27118
G1 X151.988 Y73.221 E363.38250
G1 X152.283 Y73.419 E363.39601
G1 X153.243 Y74.151 E363.44189
G1 X153.934 Y74.745 E363.47650
G1 X156.010 Y76.866 E363.58931
G1 X157.334 Y78.639 E363.67340
G1 X157.558 Y78.974 E363.68873
G1 X157.895 Y79.526 E363.71328
G1 X158.703 Y80.935 E363.77505
G1 X158.933 Y81.397 E363.79462
G1 X159.643 Y83.137 E363.86605
G1 X159.889 Y83.814 E363.89345
G1 X160.065 Y84.371 E363.91564
G1 X160.575 Y86.368 E363.99399
G1 X160.914 Y89.079 E364.09781
G1 X160.914 Y91.769 E364.20005
G1 X160.569 Y94.443 E364.30251
G1 X160.491 Y94.853 E364.31840
G1 X159.658 Y98.520 E364.46129
G1 X158.862 Y101.850 E364.59142
G1 X158.091 Y104.763 E364.70596
G1 X158.028 Y104.891 E364.71138
G1 X157.478 Y106.580 E364.77887
G1 X157.142 Y107.443 E364.81408
G1 X156.214 Y109.312 E364.89338
G1 X155.900 Y109.886 E364.91826
G1 X154.710 Y111.598 E364.99749
G1 X154.318 Y112.122 E365.02237
G1 X152.891 Y113.642 E365.10160
G1 X152.428 Y114.105 E365.12648
G1 X150.796 Y115.401 E365.20571
G1 X150.271 Y115.793 E365.23059
G1 X147.893 Y117.151 E365.33467
G1 X145.340 Y118.150 E365.43888
G1 X143.313 Y118.629 E365.51804
G1 X142.674 Y118.768 E365.54291
G1 X140.000 Y118.996 E365.64489
G1 X137.326 Y118.768 E365.74687
G1 X136.687 Y118.629 E365.77175
G1 X134.660 Y118.150 E365.85090
G1 X132.107 Y117.151 E365.95511
G1 X129.729 Y115.793 E366.05919
G1 X129.204 Y115.401 E366.08407
G1 X127.572 Y114.105 E366.16330
G1 X127.109 Y113.642 E366.18818
G1 X125.682 Y112.122 E366.26741
G1 X125.290 Y111.598 E366.29229
G1 X124.100 Y109.886 E366.37152
G1 X123.786 Y109.312 E366.39640
G1 X122.858 Y107.443 E366.47570
G1 X122.522 Y106.580 E366.51091
G1 X121.972 Y104.891 E366.57841
G1 X121.909 Y104.763 E366.58383
G1 X121.330 Y102.583 E366.66956
G1 X120.342 Y98.519 E366.82852
G1 X119.602 Y95.276 E366.95495
G1 X119.431 Y94.441 E366.98733
G1 X119.086 Y91.769 E367.08972
G1 X119.086 Y89.079 E367.19196
G1 X119.425 Y86.368 E367.29579
G1 X119.472 Y86.133 E367.30490
G1 X119.946 Y84.330 E367.37574
G1 X120.171 Y83.634 E367.40355
G1 X120.357 Y83.138 E367.42369
G1 X121.118 Y81.284 E367.49989
G1 X121.296 Y80.937 E367.51469
G1 X122.352 Y79.122 E367.59451
G1 X122.488 Y79.060 F7800.000
G1 X127.299 Y76.687 F7800.000
G1 F1200
G1 X126.647 Y77.340 E367.65649
G1 X125.318 Y78.724 E367.78532
G1 X124.020 Y80.500 E367.93296
G1 X123.726 Y80.981 E367.97083
G1 X123.183 Y81.945 E368.04508
G1 X131.556 Y73.572 E368.83998
G1 X131.799 Y73.423 E368.85912
G1 X132.737 Y72.973 E368.92895
G1 X133.669 Y72.600 E368.99635
G1 X122.249 Y84.021 E370.08054
G1 X121.976 Y84.698 E370.12960
G1 X121.788 Y85.277 E370.17040
G1 X121.665 Y85.747 E370.20303
G1 X135.337 Y72.075 E371.50098
G1 X136.092 Y71.850 E371.55391
G1 X136.817 Y71.736 E371.60313
G1 X121.315 Y87.238 E373.07481
G1 X121.146 Y88.549 E373.16355
G1 X138.171 Y71.523 E374.77990
G1 X138.555 Y71.463 E374.80597
G1 X139.416 Y71.421 E374.86382
G1 X121.018 Y89.818 E376.61039
G1 X121.018 Y90.960 E376.68703
G1 X140.588 Y71.390 E378.54492
G1 X141.677 Y71.443 E378.61809
G1 X121.037 Y92.083 E380.57757
G1 X121.168 Y93.094 E380.64602
G1 X142.710 Y71.551 E382.69121
G1 X143.690 Y71.713 E382.75788
G1 X121.298 Y94.106 E384.88371
G1 X121.334 Y94.385 E384.90265
G1 X121.474 Y95.071 E384.94961
G1 X144.663 Y71.882 E387.15104
G1 X145.541 Y72.146 E387.21259
G1 X121.686 Y96.001 E389.47731
G1 X121.898 Y96.931 E389.54132
G1 X146.419 Y72.410 E391.86926
G1 X147.256 Y72.715 E391.92904
G1 X122.110 Y97.860 E394.31626
G1 X122.328 Y98.784 E394.37998
G1 X148.061 Y73.051 E396.82296
G1 X148.826 Y73.428 E396.88021
G1 X122.551 Y99.703 E399.37464
G1 X122.775 Y100.621 E399.43809
G1 X149.537 Y73.859 E401.97883
G1 X150.248 Y74.289 E402.03463
G1 X122.998 Y101.539 E404.62167
G1 X123.223 Y102.456 E404.68502
G1 X150.959 Y74.720 E407.31816
G1 X151.289 Y74.932 E407.34447
G1 X151.629 Y75.192 E407.37321
G1 X123.463 Y103.358 E410.04721
G1 X123.702 Y104.261 E410.10989
G1 X152.270 Y75.693 E412.82200
G1 X152.710 Y76.071 E412.86098
G1 X152.870 Y76.235 E412.87631
G1 X123.990 Y105.114 E415.61801
G1 X124.271 Y105.975 E415.67881
G1 X153.434 Y76.812 E418.44749
G1 X153.999 Y77.389 E418.50169
G1 X124.583 Y106.805 E421.29431
G1 X124.959 Y107.570 E421.35158
G1 X154.564 Y77.966 E424.16213
G1 X155.059 Y78.613 E424.21680
G1 X125.338 Y108.333 E427.03834
G1 X125.739 Y109.074 E427.09490
G1 X155.547 Y79.266 E429.92473
G1 X155.976 Y79.865 E429.97418
G1 X156.018 Y79.937 E429.97978
G1 X126.207 Y109.748 E432.80986
G1 X126.675 Y110.421 E432.86493
G1 X156.438 Y80.658 E435.69051
G1 X156.859 Y81.379 E435.74655
G1 X127.168 Y111.071 E438.56535
G1 X127.720 Y111.660 E438.61957
G1 X157.248 Y82.132 E441.42286
G1 X157.579 Y82.942 E441.48165
G1 X128.273 Y112.249 E444.26387
G1 X128.753 Y112.738 E444.30987
G1 X128.850 Y112.814 E444.31813
G1 X157.906 Y83.757 E447.07662
G1 X158.198 Y84.608 E447.13696
G1 X129.490 Y113.315 E449.86234
G1 X130.130 Y113.817 E449.91693
G1 X158.435 Y85.512 E452.60405
G1 X158.668 Y86.420 E452.66699
G1 X130.784 Y114.304 E455.31419
G1 X131.508 Y114.723 E455.37029
G1 X158.797 Y87.433 E457.96107
G1 X158.924 Y88.448 E458.02972
G1 X132.231 Y115.141 E460.56389
G1 X132.744 Y115.425 E460.60327
G1 X132.992 Y115.522 E460.62113
G1 X158.982 Y89.532 E463.08846
G1 X158.982 Y90.674 E463.16511
G1 X133.813 Y115.843 E465.55453
G1 X134.633 Y116.164 E465.61369
G1 X158.907 Y91.891 E467.91812
G1 X158.738 Y93.201 E468.00684
G1 X135.510 Y116.429 E470.21195
G1 X136.437 Y116.644 E470.27581
G1 X158.489 Y94.592 E472.36935
G1 X158.154 Y96.069 E472.47104
G1 X137.365 Y116.858 E474.44465
G1 X138.417 Y116.947 E474.51553
G1 X157.818 Y97.546 E476.35740
G1 X157.462 Y99.044 E476.46078
G1 X139.469 Y117.037 E478.16893
G1 X139.686 Y117.056 E478.18355
G1 X140.677 Y116.971 E478.25030
G1 X157.103 Y100.545 E479.80973
G1 X156.708 Y102.082 E479.91625
G1 X141.925 Y116.865 E481.31969
G1 X142.502 Y116.752 E481.35917
G1 X143.388 Y116.543 E481.42031
G1 X156.298 Y103.634 E482.64585
G1 X155.731 Y105.342 E482.76669
G1 X145.018 Y116.055 E483.78369
G1 X146.620 Y115.428 E483.89919
G1 X147.010 Y115.205 E483.92929
G1 X154.812 Y107.403 E484.67002
G1 X154.301 Y108.390 E484.74463
G1 X153.202 Y109.969 E484.87380
G1 X152.909 Y110.362 E484.90671
G1 X151.594 Y111.763 E485.03567
G1 X150.617 Y112.740 E485.12844
M106 S211.65
G1 Z0.950 F7800.000
G1 X123.495 Y79.732 F7800.000
G1 F3600
G1 X123.801 Y79.270 E485.16562
G1 X124.847 Y77.853 E485.28383
G1 X124.993 Y77.682 E485.29888
G1 X126.104 Y76.535 E485.40605
G1 X127.021 Y75.621 E485.49299
G1 X127.595 Y75.130 E485.54365
G1 X128.368 Y74.541 E485.60889
G1 X128.704 Y74.314 E485.63609
G1 X131.123 Y72.844 E485.82605
G1 X131.929 Y72.456 E485.88606
G1 X132.778 Y72.109 E485.94764
G1 X133.731 Y71.772 E486.01547
G1 X135.428 Y71.259 E486.13444
G1 X137.213 Y70.959 E486.25593
G1 X138.130 Y70.829 E486.31807
G1 X140.031 Y70.738 E486.44580
G1 X141.869 Y70.829 E486.56927
G1 X142.785 Y70.959 E486.63138
G1 X144.451 Y71.232 E486.74468
G1 X146.273 Y71.773 E486.87219
G1 X147.220 Y72.109 E486.93965
G1 X148.112 Y72.475 E487.00437
G1 X148.937 Y72.877 E487.06596
G1 X151.292 Y74.312 E487.25099
G1 X151.670 Y74.569 E487.28171
G1 X152.442 Y75.159 E487.34690
G1 X152.977 Y75.620 E487.39429
G1 X153.896 Y76.535 E487.48133
G1 X155.045 Y77.722 E487.59221
G1 X156.199 Y79.270 E487.72177
G1 X156.467 Y79.671 E487.75413
G1 X156.894 Y80.369 E487.80903
G1 X157.563 Y81.536 E487.89935
G1 X157.769 Y81.952 E487.93047
G1 X158.374 Y83.440 E488.03824
G1 X158.665 Y84.233 E488.09496
G1 X158.881 Y84.918 E488.14314
G1 X159.297 Y86.552 E488.25628
G1 X159.620 Y89.158 E488.43255
G1 X159.620 Y91.686 E488.60220
G1 X159.291 Y94.235 E488.77462
G1 X159.120 Y95.084 E488.83277
G1 X158.492 Y97.835 E489.02214
G1 X157.816 Y100.660 E489.21710
G1 X156.835 Y104.350 E489.47331
G1 X156.787 Y104.442 E489.48029
G1 X156.306 Y105.920 E489.58456
G1 X155.903 Y106.956 E489.65916
G1 X155.103 Y108.566 E489.77981
G1 X154.740 Y109.230 E489.83057
G1 X153.721 Y110.696 E489.95041
G1 X153.268 Y111.301 E490.00116
G1 X152.046 Y112.603 E490.12100
G1 X151.511 Y113.138 E490.17176
G1 X150.112 Y114.248 E490.29160
G1 X149.506 Y114.702 E490.34236
G1 X147.961 Y115.596 E490.46219
G1 X147.297 Y115.958 E490.51295
G1 X145.638 Y116.618 E490.63279
G1 X144.929 Y116.882 E490.68354
G1 X142.453 Y117.453 E490.85408
G1 X140.000 Y117.662 E491.01928
G1 X137.547 Y117.453 E491.18449
G1 X136.809 Y117.293 E491.23518
G1 X135.071 Y116.882 E491.35502
G1 X132.703 Y115.958 E491.52561
G1 X132.039 Y115.596 E491.57636
G1 X130.494 Y114.702 E491.69620
G1 X129.888 Y114.248 E491.74696
G1 X128.489 Y113.138 E491.86680
G1 X127.954 Y112.603 E491.91755
G1 X126.732 Y111.301 E492.03739
G1 X126.279 Y110.696 E492.08815
G1 X125.260 Y109.230 E492.20799
G1 X124.897 Y108.566 E492.25875
G1 X124.097 Y106.956 E492.37939
G1 X123.694 Y105.920 E492.45400
G1 X123.213 Y104.442 E492.55827
G1 X123.165 Y104.349 E492.56530
G1 X122.347 Y101.285 E492.77815
G1 X121.508 Y97.832 E493.01663
G1 X120.880 Y95.084 E493.20579
G1 X120.709 Y94.235 E493.26393
G1 X120.380 Y91.686 E493.43636
G1 X120.380 Y89.158 E493.60600
G1 X120.703 Y86.558 E493.78187
G1 X120.748 Y86.332 E493.79731
G1 X121.146 Y84.818 E493.90241
G1 X121.392 Y84.066 E493.95549
G1 X121.623 Y83.448 E493.99976
G1 X122.294 Y81.812 E494.11839
G1 X123.106 Y80.369 E494.22953
G1 X123.456 Y79.796 E494.27458
G1 X122.806 Y79.311 F7800.000
G1 F3600
G1 X123.141 Y78.806 E494.31526
G1 X124.215 Y77.351 E494.43658
G1 X124.395 Y77.140 E494.45524
G1 X125.529 Y75.969 E494.56463
G1 X126.473 Y75.028 E494.65410
G1 X127.087 Y74.502 E494.70833
G1 X127.898 Y73.884 E494.77673
G1 X128.269 Y73.634 E494.80678
G1 X130.737 Y72.133 E495.00062
G1 X131.601 Y71.718 E495.06494
G1 X132.491 Y71.355 E495.12944
G1 X133.479 Y71.005 E495.19982
G1 X135.218 Y70.479 E495.32174
G1 X135.424 Y70.431 E495.33593
G1 X137.092 Y70.161 E495.44933
G1 X138.054 Y70.025 E495.51452
G1 X140.032 Y69.930 E495.64738
G1 X141.945 Y70.025 E495.77595
G1 X142.907 Y70.161 E495.84113
G1 X144.632 Y70.443 E495.95846
G1 X146.523 Y71.005 E496.09080
G1 X147.508 Y71.355 E496.16099
G1 X148.443 Y71.738 E496.22876
G1 X149.325 Y72.168 E496.29463
G1 X151.729 Y73.633 E496.48354
G1 X152.142 Y73.914 E496.51711
G1 X152.951 Y74.532 E496.58539
G1 X153.526 Y75.027 E496.63632
G1 X154.471 Y75.968 E496.72583
G1 X155.646 Y77.183 E496.83926
G1 X156.859 Y78.806 E496.97521
G1 X157.147 Y79.235 E497.00993
G1 X157.589 Y79.958 E497.06673
G1 X158.276 Y81.156 E497.15946
G1 X158.505 Y81.621 E497.19421
G1 X159.127 Y83.149 E497.30493
G1 X159.429 Y83.973 E497.36380
G1 X159.657 Y84.694 E497.41455
G1 X160.049 Y86.188 E497.51826
G1 X160.094 Y86.426 E497.53446
G1 X160.427 Y89.109 E497.71590
G1 X160.427 Y91.738 E497.89236
G1 X160.088 Y94.366 E498.07019
G1 X159.909 Y95.253 E498.13094
G1 X159.278 Y98.019 E498.32127
G1 X158.599 Y100.858 E498.51719
G1 X157.592 Y104.642 E498.77995
G1 X157.534 Y104.754 E498.78844
G1 X157.066 Y106.191 E498.88987
G1 X156.642 Y107.282 E498.96843
G1 X155.818 Y108.939 E499.09256
G1 X155.428 Y109.654 E499.14728
G1 X154.376 Y111.168 E499.27099
G1 X153.887 Y111.821 E499.32572
G1 X152.625 Y113.165 E499.44943
G1 X152.049 Y113.742 E499.50415
G1 X150.605 Y114.888 E499.62786
G1 X149.952 Y115.376 E499.68258
G1 X148.356 Y116.299 E499.80629
G1 X147.641 Y116.690 E499.86101
G1 X145.928 Y117.371 E499.98472
G1 X145.164 Y117.656 E500.03944
G1 X142.573 Y118.253 E500.21783
G1 X140.000 Y118.472 E500.39115
G1 X137.427 Y118.253 E500.56447
G1 X136.630 Y118.080 E500.61916
G1 X134.836 Y117.656 E500.74287
G1 X132.359 Y116.690 E500.92129
G1 X131.644 Y116.299 E500.97601
G1 X130.048 Y115.376 E501.09972
G1 X129.395 Y114.888 E501.15444
G1 X127.951 Y113.742 E501.27815
G1 X127.375 Y113.165 E501.33288
G1 X126.113 Y111.821 E501.45659
G1 X125.625 Y111.168 E501.51131
G1 X124.572 Y109.654 E501.63502
G1 X124.182 Y108.939 E501.68974
G1 X123.358 Y107.282 E501.81387
G1 X122.934 Y106.191 E501.89244
G1 X122.466 Y104.754 E501.99387
G1 X122.408 Y104.641 E502.00238
G1 X121.565 Y101.484 E502.22167
G1 X120.722 Y98.017 E502.46114
G1 X120.091 Y95.253 E502.65136
G1 X119.912 Y94.366 E502.71211
G1 X119.573 Y91.738 E502.88993
G1 X119.573 Y89.109 E503.06640
G1 X119.905 Y86.429 E503.24762
G1 X119.961 Y86.150 E503.26669
G1 X120.372 Y84.590 E503.37498
G1 X120.630 Y83.799 E503.43078
G1 X120.871 Y83.153 E503.47707
G1 X121.561 Y81.474 E503.59886
G1 X121.721 Y81.162 E503.62241
G1 X122.411 Y79.958 E503.71557
G1 X122.767 Y79.375 E503.76137
G1 X122.267 Y78.982 F7800.000
G1 F1800
G1 X122.624 Y78.442 E503.78597
G1 X123.719 Y76.958 E503.85606
G1 X123.927 Y76.714 E503.86823
G1 X125.079 Y75.525 E503.93117
G1 X126.044 Y74.563 E503.98296
G1 X126.690 Y74.010 E504.01526
G1 X127.529 Y73.370 E504.05539
G1 X127.929 Y73.102 E504.07367
G1 X130.435 Y71.577 E504.18518
G1 X131.344 Y71.140 E504.22351
G1 X132.266 Y70.764 E504.26133
G1 X133.282 Y70.404 E504.30233
G1 X135.054 Y69.869 E504.37268
G1 X135.301 Y69.810 E504.38231
G1 X136.998 Y69.536 E504.44763
G1 X137.995 Y69.395 E504.48591
G1 X140.032 Y69.297 E504.56343
G1 X142.005 Y69.395 E504.63851
G1 X143.002 Y69.536 E504.67678
G1 X144.774 Y69.826 E504.74502
G1 X146.718 Y70.404 E504.82211
G1 X147.734 Y70.764 E504.86307
G1 X148.701 Y71.161 E504.90280
G1 X149.628 Y71.613 E504.94200
G1 X152.071 Y73.101 E505.05071
G1 X152.512 Y73.401 E505.07099
G1 X153.349 Y74.041 E505.11103
G1 X153.956 Y74.563 E505.14144
G1 X154.921 Y75.525 E505.19323
G1 X156.117 Y76.761 E505.25860
G1 X156.280 Y76.957 E505.26829
G1 X157.376 Y78.442 E505.33844
G1 X157.680 Y78.895 E505.35915
G1 X158.132 Y79.636 E505.39216
G1 X158.834 Y80.859 E505.44574
G1 X159.082 Y81.361 E505.46704
G1 X159.717 Y82.921 E505.53105
G1 X160.027 Y83.768 E505.56535
G1 X160.264 Y84.518 E505.59523
G1 X160.665 Y86.048 E505.65536
G1 X160.719 Y86.327 E505.66613
G1 X161.059 Y89.070 E505.77117
G1 X161.059 Y91.779 E505.87414
G1 X160.712 Y94.469 E505.97724
G1 X160.527 Y95.386 E506.01280
G1 X159.893 Y98.162 E506.12102
G1 X159.212 Y101.013 E506.23241
G1 X158.185 Y104.870 E506.38412
G1 X158.120 Y104.998 E506.38959
G1 X157.662 Y106.404 E506.44578
G1 X157.220 Y107.538 E506.49203
G1 X156.379 Y109.231 E506.56388
G1 X155.966 Y109.987 E506.59663
G1 X154.888 Y111.538 E506.66840
G1 X154.372 Y112.228 E506.70115
G1 X153.079 Y113.605 E506.77293
G1 X152.470 Y114.214 E506.80568
G1 X150.991 Y115.388 E506.87746
G1 X150.301 Y115.905 E506.91021
G1 X148.666 Y116.850 E506.98199
G1 X147.910 Y117.263 E507.01474
G1 X146.155 Y117.961 E507.08651
G1 X145.348 Y118.262 E507.11926
G1 X142.668 Y118.880 E507.22378
G1 X140.000 Y119.106 E507.32554
G1 X137.332 Y118.880 E507.42729
G1 X136.490 Y118.696 E507.46004
G1 X134.652 Y118.262 E507.53182
G1 X133.845 Y117.961 E507.56457
G1 X132.090 Y117.263 E507.63634
G1 X131.334 Y116.850 E507.66909
G1 X129.699 Y115.905 E507.74087
G1 X129.009 Y115.388 E507.77362
G1 X127.530 Y114.214 E507.84540
G1 X126.921 Y113.605 E507.87815
G1 X125.628 Y112.228 E507.94993
G1 X125.112 Y111.538 E507.98268
G1 X124.034 Y109.987 E508.05445
G1 X123.621 Y109.231 E508.08720
G1 X122.780 Y107.538 E508.15905
G1 X122.338 Y106.404 E508.20530
G1 X121.880 Y104.998 E508.26149
G1 X121.814 Y104.870 E508.26696
G1 X120.953 Y101.640 E508.39401
G1 X120.107 Y98.162 E508.53007
G1 X119.473 Y95.386 E508.63827
G1 X119.288 Y94.469 E508.67383
G1 X118.941 Y91.779 E508.77694
G1 X118.941 Y89.070 E508.87990
G1 X119.281 Y86.328 E508.98491
G1 X119.345 Y86.008 E508.99732
G1 X119.765 Y84.411 E509.06006
G1 X120.033 Y83.590 E509.09287
G1 X120.283 Y82.922 E509.11998
G1 X120.986 Y81.209 E509.19036
G1 X121.165 Y80.860 E509.20527
G1 X121.868 Y79.636 E509.25892
G1 X122.228 Y79.046 E509.28519
G1 X122.369 Y78.984 F7800.000
G1 X127.990 Y111.312 F7800.000
G1 F4800
G1 X128.945 Y112.329 E509.39902
G1 X129.433 Y112.817 E509.45542
G1 X129.736 Y113.058 E509.48698
G1 X127.071 Y110.378 E509.79553
G1 X126.657 Y109.825 E509.85193
G1 X125.674 Y108.411 E509.99249
G1 X125.343 Y107.804 E510.04889
G1 X124.568 Y106.246 E510.19094
G1 X124.189 Y105.271 E510.27635
G1 X123.929 Y104.474 E510.34475
G1 X135.872 Y116.417 E511.72346
G1 X138.034 Y116.916 E511.90460
G1 X139.251 Y117.019 E512.00430
G1 X122.840 Y100.608 E513.89888
G1 X121.954 Y96.945 E514.20648
G1 X141.982 Y116.973 E516.51862
G1 X142.667 Y116.915 E516.57475
G1 X144.322 Y116.537 E516.71334
G1 X121.202 Y93.417 E519.38244
G1 X120.927 Y91.281 E519.55822
G1 X120.927 Y90.364 E519.63305
G1 X146.396 Y115.833 E522.57334
G1 X147.266 Y115.494 E522.64963
G1 X148.271 Y114.932 E522.74360
G1 X121.068 Y87.729 E525.88414
G1 X121.235 Y86.376 E525.99539
G1 X121.491 Y85.375 E526.07974
G1 X149.964 Y113.848 E529.36685
G1 X151.262 Y112.817 E529.50217
G1 X151.486 Y112.593 E529.52802
G1 X122.169 Y83.276 E532.91256
G1 X122.759 Y81.839 E533.03937
G1 X123.024 Y81.355 E533.08446
G1 X152.839 Y111.169 E536.52644
G1 X153.343 Y110.520 E536.59354
G1 X154.009 Y109.563 E536.68875
G1 X124.064 Y79.618 E540.14578
G1 X125.239 Y78.016 E540.30794
G1 X155.011 Y107.788 E543.74499
G1 X155.432 Y106.942 E543.82213
G1 X155.849 Y105.849 E543.91760
G1 X126.604 Y76.604 E547.29380
G1 X127.281 Y75.931 E547.37174
G1 X128.062 Y75.285 E547.45446
G1 X156.513 Y103.736 E550.73898
G1 X157.096 Y101.543 E550.92426
G1 X129.731 Y74.177 E554.08347
G1 X131.202 Y73.283 E554.22401
G1 X131.480 Y73.149 E554.24917
G1 X157.648 Y99.318 E557.27026
G1 X158.176 Y97.069 E557.45883
G1 X133.455 Y72.347 E560.31286
G1 X135.284 Y71.784 E560.46916
G1 X135.613 Y71.729 E560.49633
G1 X158.683 Y94.799 E563.15967
G1 X158.756 Y94.436 E563.18985
G1 X159.023 Y92.363 E563.36054
G1 X138.026 Y71.365 E565.78461
G1 X139.683 Y71.286 E565.91999
G1 X140.778 Y71.340 E566.00949
G1 X159.073 Y89.636 E568.12164
G1 X158.764 Y87.065 E568.33298
G1 X158.588 Y86.374 E568.39124
G1 X144.001 Y71.786 E570.07529
G1 X145.648 Y72.276 E570.21556
G1 X146.553 Y72.597 E570.29394
G1 X147.398 Y72.944 E570.36854
G1 X148.160 Y73.315 E570.43771
G1 X148.534 Y73.543 E570.47349
G1 X156.887 Y81.895 E571.43774
M107
G1 Z1.075 F7800.000
M106 S211.65
G1 Z1.150 F7800.000
G1 X123.371 Y79.656 F7800.000
G1 F3600
G1 X123.759 Y79.072 E571.48483
G1 X124.832 Y77.635 E571.60517
G1 X125.816 Y76.618 E571.70014
G1 X126.980 Y75.458 E571.81042
G1 X127.527 Y74.990 E571.85872
G1 X128.227 Y74.458 E571.91773
G1 X128.618 Y74.197 E571.94931
G1 X131.102 Y72.685 E572.14444
G1 X131.829 Y72.334 E572.19863
G1 X132.610 Y72.016 E572.25523
G1 X133.825 Y71.585 E572.34172
G1 X135.327 Y71.128 E572.44707
G1 X135.546 Y71.077 E572.46215
G1 X136.943 Y70.850 E572.55713
G1 X138.116 Y70.685 E572.63664
G1 X140.038 Y70.593 E572.76581
G1 X141.883 Y70.684 E572.88971
G1 X143.055 Y70.850 E572.96917
G1 X144.507 Y71.089 E573.06795
G1 X146.180 Y71.587 E573.18505
G1 X147.387 Y72.015 E573.27104
G1 X148.220 Y72.357 E573.33147
G1 X148.973 Y72.727 E573.38772
G1 X151.374 Y74.192 E573.57654
G1 X151.868 Y74.528 E573.61656
G1 X152.517 Y75.025 E573.67147
G1 X153.018 Y75.456 E573.71583
G1 X154.184 Y76.618 E573.82627
G1 X155.168 Y77.635 E573.92125
G1 X156.241 Y79.072 E574.04158
G1 X156.589 Y79.591 E574.08352
G1 X157.131 Y80.479 E574.15336
G1 X157.693 Y81.459 E574.22915
G1 X157.918 Y81.914 E574.26324
G1 X158.448 Y83.224 E574.35804
G1 X158.804 Y84.191 E574.42721
G1 X159.062 Y84.999 E574.48412
G1 X159.391 Y86.252 E574.57109
G1 X159.441 Y86.510 E574.58873
G1 X159.765 Y89.148 E574.76708
G1 X159.765 Y91.696 E574.93806
G1 X159.433 Y94.264 E575.11185
G1 X159.248 Y95.192 E575.17531
G1 X158.165 Y99.827 E575.49473
G1 X156.925 Y104.459 E575.81657
G1 X156.877 Y104.553 E575.82364
G1 X156.489 Y105.744 E575.90770
G1 X155.981 Y107.051 E576.00181
G1 X155.268 Y108.485 E576.10930
G1 X154.806 Y109.331 E576.17395
G1 X153.899 Y110.636 E576.28063
G1 X153.321 Y111.407 E576.34528
G1 X152.234 Y112.566 E576.45196
G1 X151.552 Y113.248 E576.51662
G1 X150.307 Y114.236 E576.62329
G1 X149.536 Y114.813 E576.68795
G1 X148.160 Y115.609 E576.79462
G1 X147.314 Y116.071 E576.85928
G1 X145.837 Y116.658 E576.96595
G1 X144.935 Y116.995 E577.03060
G1 X142.447 Y117.565 E577.20185
G1 X140.000 Y117.772 E577.36668
G1 X137.553 Y117.565 E577.53150
G1 X136.612 Y117.360 E577.59608
G1 X135.065 Y116.995 E577.70276
G1 X134.163 Y116.658 E577.76741
G1 X132.686 Y116.071 E577.87409
G1 X131.840 Y115.609 E577.93874
G1 X130.464 Y114.813 E578.04541
G1 X129.693 Y114.236 E578.11007
G1 X128.448 Y113.248 E578.21675
G1 X127.766 Y112.566 E578.28140
G1 X126.679 Y111.407 E578.38808
G1 X126.101 Y110.636 E578.45273
G1 X125.194 Y109.331 E578.55941
G1 X124.732 Y108.485 E578.62407
G1 X124.019 Y107.051 E578.73155
G1 X123.511 Y105.744 E578.82566
G1 X123.123 Y104.553 E578.90972
G1 X123.071 Y104.451 E578.91741
G1 X121.970 Y100.343 E579.20285
G1 X121.272 Y97.475 E579.40091
G1 X120.752 Y95.196 E579.55777
G1 X120.567 Y94.264 E579.62152
G1 X120.235 Y91.696 E579.79531
G1 X120.235 Y89.148 E579.96630
G1 X120.558 Y86.516 E580.14424
G1 X120.620 Y86.207 E580.16543
G1 X120.955 Y84.937 E580.25353
G1 X121.253 Y84.021 E580.31820
G1 X121.548 Y83.232 E580.37474
G1 X122.162 Y81.739 E580.48305
G1 X122.869 Y80.479 E580.58000
G1 X123.332 Y79.720 E580.63965
G1 X122.682 Y79.236 F7800.000
G1 F3600
G1 X123.099 Y78.608 E580.69019
G1 X124.051 Y77.312 E580.79814
G1 X124.230 Y77.096 E580.81698
G1 X125.241 Y76.051 E580.91451
G1 X126.432 Y74.865 E581.02734
G1 X127.020 Y74.362 E581.07926
G1 X127.758 Y73.800 E581.14153
G1 X128.185 Y73.516 E581.17590
G1 X130.716 Y71.975 E581.37477
G1 X131.501 Y71.597 E581.43328
G1 X132.323 Y71.261 E581.49283
G1 X133.573 Y70.818 E581.58182
G1 X135.117 Y70.349 E581.69012
G1 X135.388 Y70.285 E581.70885
G1 X136.822 Y70.052 E581.80630
G1 X138.040 Y69.880 E581.88887
G1 X140.039 Y69.785 E582.02318
G1 X141.959 Y69.880 E582.15218
G1 X143.177 Y70.052 E582.23472
G1 X144.689 Y70.301 E582.33754
G1 X146.430 Y70.819 E582.45944
G1 X147.676 Y71.261 E582.54817
G1 X148.552 Y71.621 E582.61175
G1 X149.361 Y72.019 E582.67226
G1 X151.811 Y73.514 E582.86487
G1 X152.340 Y73.873 E582.90776
G1 X153.026 Y74.398 E582.96576
G1 X153.567 Y74.864 E583.01364
G1 X154.759 Y76.051 E583.12656
G1 X155.770 Y77.096 E583.22409
G1 X155.949 Y77.312 E583.24293
G1 X156.901 Y78.608 E583.35088
G1 X157.269 Y79.156 E583.39513
G1 X157.826 Y80.068 E583.46687
G1 X158.406 Y81.079 E583.54511
G1 X158.655 Y81.584 E583.58287
G1 X159.201 Y82.933 E583.68054
G1 X159.567 Y83.929 E583.75174
G1 X159.838 Y84.773 E583.81124
G1 X160.179 Y86.073 E583.90145
G1 X160.239 Y86.385 E583.92273
G1 X160.572 Y89.099 E584.10624
G1 X160.572 Y91.748 E584.28401
G1 X160.230 Y94.395 E584.46313
G1 X160.037 Y95.362 E584.52934
G1 X158.948 Y100.023 E584.85051
G1 X157.683 Y104.751 E585.17900
G1 X157.624 Y104.864 E585.18753
G1 X157.249 Y106.016 E585.26879
G1 X156.719 Y107.377 E585.36686
G1 X155.984 Y108.858 E585.47783
G1 X155.494 Y109.756 E585.54645
G1 X154.553 Y111.108 E585.65700
G1 X153.941 Y111.927 E585.72562
G1 X152.813 Y113.128 E585.83617
G1 X152.090 Y113.851 E585.90478
G1 X150.800 Y114.875 E586.01533
G1 X149.981 Y115.488 E586.08395
G1 X148.556 Y116.313 E586.19450
G1 X147.658 Y116.803 E586.26312
G1 X146.127 Y117.411 E586.37366
G1 X145.169 Y117.769 E586.44228
G1 X142.568 Y118.365 E586.62140
G1 X140.000 Y118.582 E586.79433
G1 X137.432 Y118.365 E586.96726
G1 X136.434 Y118.147 E587.03584
G1 X134.831 Y117.769 E587.14639
G1 X133.873 Y117.411 E587.21500
G1 X132.342 Y116.803 E587.32555
G1 X131.444 Y116.313 E587.39417
G1 X130.019 Y115.488 E587.50472
G1 X129.200 Y114.875 E587.57333
G1 X127.910 Y113.851 E587.68388
G1 X127.187 Y113.128 E587.75250
G1 X126.059 Y111.927 E587.86305
G1 X125.447 Y111.108 E587.93167
G1 X124.506 Y109.756 E588.04222
G1 X124.016 Y108.858 E588.11084
G1 X123.281 Y107.377 E588.22180
G1 X122.751 Y106.016 E588.31988
G1 X122.376 Y104.864 E588.40114
G1 X122.315 Y104.747 E588.40999
G1 X121.188 Y100.542 E588.70215
G1 X120.487 Y97.660 E588.90119
G1 X119.963 Y95.365 E589.05918
G1 X119.770 Y94.395 E589.12554
G1 X119.428 Y91.748 E589.30466
G1 X119.428 Y89.099 E589.48244
G1 X119.761 Y86.388 E589.66573
G1 X119.834 Y86.024 E589.69060
G1 X120.181 Y84.709 E589.78187
G1 X120.491 Y83.755 E589.84925
G1 X120.797 Y82.937 E589.90783
G1 X121.428 Y81.400 E590.01933
G1 X122.174 Y80.068 E590.12179
G1 X122.643 Y79.300 E590.18221
G1 X122.143 Y78.906 F7800.000
G1 F1800
G1 X122.581 Y78.245 E590.21236
G1 X123.553 Y76.922 E590.27472
G1 X123.760 Y76.673 E590.28702
G1 X124.790 Y75.607 E590.34338
G1 X126.003 Y74.400 E590.40841
G1 X126.623 Y73.869 E590.43942
G1 X127.392 Y73.285 E590.47613
G1 X127.845 Y72.983 E590.49684
G1 X130.414 Y71.419 E590.61113
G1 X131.244 Y71.019 E590.64617
G1 X132.098 Y70.670 E590.68121
G1 X133.375 Y70.218 E590.73272
G1 X134.952 Y69.738 E590.79536
G1 X135.265 Y69.664 E590.80759
G1 X136.727 Y69.427 E590.86388
G1 X137.981 Y69.250 E590.91199
G1 X140.040 Y69.152 E590.99034
G1 X142.019 Y69.250 E591.06566
G1 X143.273 Y69.427 E591.11377
G1 X144.831 Y69.684 E591.17379
G1 X146.626 Y70.218 E591.24496
G1 X147.902 Y70.670 E591.29643
G1 X148.812 Y71.045 E591.33383
G1 X149.666 Y71.464 E591.36999
G1 X152.154 Y72.982 E591.48075
G1 X152.710 Y73.360 E591.50631
G1 X153.425 Y73.907 E591.54053
G1 X153.997 Y74.400 E591.56921
G1 X155.210 Y75.607 E591.63426
G1 X156.240 Y76.673 E591.69062
G1 X156.447 Y76.922 E591.70292
G1 X157.419 Y78.245 E591.76528
G1 X157.801 Y78.815 E591.79137
G1 X158.370 Y79.746 E591.83284
G1 X158.964 Y80.782 E591.87824
G1 X159.232 Y81.325 E591.90125
G1 X159.791 Y82.705 E591.95783
G1 X160.165 Y83.723 E591.99906
G1 X160.445 Y84.596 E592.03391
G1 X160.795 Y85.933 E592.08644
G1 X160.863 Y86.286 E592.10010
G1 X161.204 Y89.060 E592.20632
G1 X161.204 Y91.788 E592.31001
G1 X160.854 Y94.497 E592.41382
G1 X160.655 Y95.496 E592.45253
G1 X159.561 Y100.176 E592.63520
G1 X158.276 Y104.980 E592.82418
G1 X158.210 Y105.108 E592.82966
G1 X157.845 Y106.228 E592.87444
G1 X157.298 Y107.633 E592.93174
G1 X156.544 Y109.150 E592.99613
G1 X156.032 Y110.088 E593.03675
G1 X155.066 Y111.478 E593.10108
G1 X154.426 Y112.334 E593.14169
G1 X153.267 Y113.568 E593.20602
G1 X152.512 Y114.324 E593.24664
G1 X151.186 Y115.376 E593.31096
G1 X150.330 Y116.016 E593.35158
G1 X148.865 Y116.864 E593.41591
G1 X147.927 Y117.376 E593.45653
G1 X146.355 Y118.001 E593.52085
G1 X145.353 Y118.375 E593.56147
G1 X142.662 Y118.991 E593.66640
G1 X140.000 Y119.216 E593.76794
G1 X137.338 Y118.991 E593.86947
G1 X136.294 Y118.764 E593.91008
G1 X134.647 Y118.375 E593.97440
G1 X133.645 Y118.001 E594.01502
G1 X132.073 Y117.376 E594.07935
G1 X131.135 Y116.864 E594.11997
G1 X129.670 Y116.016 E594.18429
G1 X128.814 Y115.376 E594.22491
G1 X127.488 Y114.324 E594.28924
G1 X126.733 Y113.568 E594.32985
G1 X125.574 Y112.334 E594.39418
G1 X124.934 Y111.478 E594.43480
G1 X123.968 Y110.088 E594.49912
G1 X123.456 Y109.150 E594.53974
G1 X122.702 Y107.633 E594.60414
G1 X122.155 Y106.228 E594.66144
G1 X121.790 Y105.108 E594.70621
G1 X121.724 Y104.979 E594.71174
G1 X120.575 Y100.698 E594.88018
G1 X119.872 Y97.805 E594.99334
G1 X119.345 Y95.497 E595.08332
G1 X119.146 Y94.497 E595.12206
G1 X118.796 Y91.788 E595.22587
G1 X118.796 Y89.060 E595.32956
G1 X119.137 Y86.287 E595.43574
G1 X119.218 Y85.882 E595.45145
G1 X119.574 Y84.531 E595.50455
G1 X119.894 Y83.546 E595.54391
G1 X120.208 Y82.706 E595.57799
G1 X120.854 Y81.135 E595.64255
G1 X121.035 Y80.784 E595.65755
G1 X121.630 Y79.746 E595.70304
G1 X122.104 Y78.970 E595.73759
G1 X122.250 Y78.909 F7800.000
G1 X131.196 Y73.813 F7800.000
G1 F4800
G1 X128.751 Y75.299 E595.97114
G1 X128.398 Y75.535 E596.00579
G1 X127.741 Y76.034 E596.07318
G1 X127.239 Y76.463 E596.12706
G1 X126.105 Y77.593 E596.25776
G1 X125.150 Y78.580 E596.36985
G1 X124.144 Y79.934 E596.50756
G1 X123.817 Y80.421 E596.55548
G1 X123.290 Y81.283 E596.63787
G1 X122.712 Y82.297 E596.73323
G1 X131.892 Y73.117 E597.79302
G1 X132.541 Y72.804 E597.85187
G1 X133.277 Y72.504 E597.91676
G1 X134.453 Y72.087 E598.01859
G1 X135.908 Y71.644 E598.14276
G1 X136.200 Y71.585 E598.16713
G1 X121.185 Y86.600 E599.90055
G1 X121.094 Y87.007 E599.93455
G1 X120.782 Y89.551 E600.14379
G1 X120.782 Y89.781 E600.16256
G1 X139.374 Y71.189 E602.30891
G1 X140.385 Y71.141 E602.39161
G1 X142.113 Y71.226 E602.53280
G1 X120.847 Y92.492 E604.98785
G1 X121.102 Y94.467 E605.15043
G1 X121.193 Y94.923 E605.18838
G1 X144.523 Y71.593 E607.88173
G1 X144.654 Y71.615 E607.89259
G1 X146.251 Y72.090 E608.02857
G1 X146.659 Y72.234 E608.06390
G1 X121.699 Y97.194 E610.94543
G1 X122.237 Y99.433 E611.13339
G1 X148.632 Y73.037 E614.18064
G1 X148.889 Y73.164 E614.20404
G1 X150.376 Y74.071 E614.34617
G1 X122.803 Y101.643 E617.52930
G1 X123.390 Y103.833 E617.71439
G1 X152.047 Y75.177 E621.02267
G1 X152.758 Y75.765 E621.09803
G1 X153.498 Y76.502 E621.18329
G1 X124.063 Y105.937 E624.58149
G1 X124.491 Y107.037 E624.67779
G1 X124.905 Y107.871 E624.75388
G1 X154.866 Y77.911 E628.21269
G1 X155.858 Y79.241 E628.34815
G1 X156.041 Y79.513 E628.37489
G1 X125.911 Y109.643 E631.85328
G1 X126.479 Y110.460 E631.93455
G1 X127.082 Y111.248 E632.01556
G1 X157.086 Y81.244 E635.47945
G1 X157.449 Y81.933 E635.54298
G1 X157.947 Y83.161 E635.65114
G1 X128.438 Y112.669 E639.05776
G1 X128.696 Y112.927 E639.08752
G1 X129.958 Y113.926 E639.21893
G1 X158.641 Y85.243 E642.53021
G1 X158.905 Y86.302 E642.61927
G1 X159.064 Y87.597 E642.72581
G1 X131.647 Y115.013 E645.89093
G1 X132.719 Y115.608 E645.99093
G1 X133.514 Y115.924 E646.06079
G1 X159.218 Y90.219 E649.02825
G1 X159.218 Y91.291 E649.11570
G1 X158.966 Y93.249 E649.27687
G1 X135.590 Y116.625 E651.97554
G1 X137.343 Y117.027 E652.12240
G1 X137.916 Y117.075 E652.16932
G1 X158.230 Y96.762 E654.51445
G1 X157.645 Y99.261 E654.72400
G1 X157.330 Y100.438 E654.82340
G1 X140.628 Y117.140 E656.75161
G1 X141.966 Y117.026 E656.86120
G1 X143.977 Y116.567 E657.02960
G1 X156.257 Y104.287 E658.44730
G1 X155.994 Y105.095 E658.51665
G1 X155.509 Y106.341 E658.62579
G1 X154.822 Y107.724 E658.75183
G1 X154.392 Y108.512 E658.82513
G1 X153.521 Y109.765 E658.94968
G1 X153.415 Y109.907 E658.96418
G1 X149.575 Y113.747 E659.40752
G1 Z1.350 F7800.000
G1 X123.247 Y79.581 F7800.000
G1 F3600
G1 X123.713 Y78.880 E659.46397
G1 X124.709 Y77.547 E659.57562
G1 X125.527 Y76.700 E659.65469
G1 X126.941 Y75.293 E659.78854
G1 X127.407 Y74.890 E659.82988
G1 X127.935 Y74.486 E659.87449
G1 X128.542 Y74.074 E659.92375
G1 X131.082 Y72.527 E660.12332
G1 X131.730 Y72.213 E660.17168
G1 X132.442 Y71.922 E660.22330
G1 X133.920 Y71.398 E660.32848
G1 X135.226 Y70.997 E660.42021
G1 X135.510 Y70.930 E660.43975
G1 X136.672 Y70.742 E660.51879
G1 X138.102 Y70.540 E660.61566
G1 X140.046 Y70.448 E660.74627
G1 X141.896 Y70.540 E660.87061
G1 X143.324 Y70.741 E660.96739
G1 X144.594 Y70.952 E661.05378
G1 X144.810 Y71.008 E661.06873
G1 X146.080 Y71.398 E661.15789
G1 X147.555 Y71.921 E661.26290
G1 X148.328 Y72.240 E661.31903
G1 X149.008 Y72.577 E661.36992
G1 X151.457 Y74.073 E661.56256
G1 X152.065 Y74.486 E661.61189
G1 X152.593 Y74.890 E661.65650
G1 X153.059 Y75.293 E661.69784
G1 X154.473 Y76.700 E661.83169
G1 X155.291 Y77.547 E661.91077
G1 X156.287 Y78.880 E662.02242
G1 X156.711 Y79.512 E662.07345
G1 X157.327 Y80.518 E662.15260
G1 X157.824 Y81.382 E662.21952
G1 X158.066 Y81.877 E662.25649
G1 X158.522 Y83.007 E662.33829
G1 X158.942 Y84.146 E662.41974
G1 X159.258 Y85.132 E662.48921
G1 X159.521 Y86.137 E662.55895
G1 X159.585 Y86.469 E662.58163
G1 X159.910 Y89.138 E662.76206
G1 X159.910 Y91.706 E662.93438
G1 X159.576 Y94.294 E663.10952
G1 X159.377 Y95.304 E663.17859
G1 X158.515 Y98.988 E663.43254
G1 X157.008 Y104.584 E663.82144
G1 X156.962 Y104.679 E663.82851
G1 X156.672 Y105.568 E663.89128
G1 X156.058 Y107.146 E664.00490
G1 X155.433 Y108.405 E664.09922
G1 X154.872 Y109.432 E664.17777
G1 X154.077 Y110.576 E664.27128
G1 X153.375 Y111.513 E664.34983
G1 X152.421 Y112.529 E664.44335
G1 X151.594 Y113.357 E664.52190
G1 X150.502 Y114.223 E664.61542
G1 X149.565 Y114.925 E664.69397
G1 X148.359 Y115.622 E664.78748
G1 X147.332 Y116.183 E664.86603
G1 X146.037 Y116.698 E664.95955
G1 X144.940 Y117.107 E665.03809
G1 X142.442 Y117.676 E665.21007
G1 X140.000 Y117.882 E665.37451
G1 X137.558 Y117.676 E665.53895
G1 X136.416 Y117.428 E665.61741
G1 X135.060 Y117.107 E665.71093
G1 X133.963 Y116.698 E665.78947
G1 X132.668 Y116.183 E665.88299
G1 X131.641 Y115.622 E665.96154
G1 X130.435 Y114.925 E666.05505
G1 X129.498 Y114.223 E666.13360
G1 X128.406 Y113.357 E666.22712
G1 X127.579 Y112.529 E666.30567
G1 X126.625 Y111.513 E666.39919
G1 X125.923 Y110.576 E666.47773
G1 X125.128 Y109.432 E666.57125
G1 X124.567 Y108.405 E666.64980
G1 X123.942 Y107.146 E666.74412
G1 X123.328 Y105.568 E666.85774
G1 X123.038 Y104.679 E666.92051
G1 X122.988 Y104.577 E666.92811
G1 X122.583 Y103.127 E667.02914
G1 X121.592 Y99.401 E667.28789
G1 X121.037 Y97.119 E667.44551
G1 X120.573 Y95.073 E667.58632
G1 X120.425 Y94.299 E667.63919
G1 X120.090 Y91.706 E667.81466
G1 X120.090 Y89.138 E667.98698
G1 X120.414 Y86.475 E668.16700
G1 X120.493 Y86.081 E668.19393
G1 X120.764 Y85.057 E668.26502
G1 X121.115 Y83.976 E668.34129
G1 X121.474 Y83.016 E668.41011
G1 X122.029 Y81.666 E668.50809
G1 X122.631 Y80.589 E668.59085
G1 X123.208 Y79.645 E668.66512
G1 X122.559 Y79.160 F7800.000
G1 F3600
G1 X123.054 Y78.414 E668.72522
G1 X123.906 Y77.251 E668.82196
G1 X124.107 Y77.008 E668.84313
G1 X124.952 Y76.134 E668.92475
G1 X126.392 Y74.700 E669.06107
G1 X126.898 Y74.264 E669.10591
G1 X127.462 Y73.831 E669.15363
G1 X128.105 Y73.395 E669.20579
G1 X130.695 Y71.817 E669.40931
G1 X131.402 Y71.475 E669.46199
G1 X132.155 Y71.167 E669.51659
G1 X133.666 Y70.632 E669.62421
G1 X135.015 Y70.218 E669.71889
G1 X135.353 Y70.138 E669.74215
G1 X136.551 Y69.944 E669.82366
G1 X138.026 Y69.736 E669.92360
G1 X140.047 Y69.640 E670.05935
G1 X141.973 Y69.736 E670.18878
G1 X143.447 Y69.944 E670.28868
G1 X144.761 Y70.162 E670.37808
G1 X145.029 Y70.231 E670.39666
G1 X146.333 Y70.632 E670.48822
G1 X147.844 Y71.167 E670.59575
G1 X148.661 Y71.504 E670.65512
G1 X149.398 Y71.869 E670.71027
G1 X151.894 Y73.394 E670.90661
G1 X152.538 Y73.831 E670.95880
G1 X153.102 Y74.264 E671.00652
G1 X153.608 Y74.700 E671.05136
G1 X155.048 Y76.134 E671.18768
G1 X155.893 Y77.008 E671.26931
G1 X156.094 Y77.251 E671.29047
G1 X156.946 Y78.414 E671.38721
G1 X157.390 Y79.076 E671.44073
G1 X158.021 Y80.106 E671.52174
G1 X158.536 Y81.003 E671.59118
G1 X158.804 Y81.547 E671.63190
G1 X159.276 Y82.716 E671.71650
G1 X159.705 Y83.883 E671.79995
G1 X160.033 Y84.906 E671.87203
G1 X160.309 Y85.958 E671.94501
G1 X160.383 Y86.344 E671.97136
G1 X160.717 Y89.089 E672.15695
G1 X160.717 Y91.757 E672.33603
G1 X160.373 Y94.424 E672.51644
G1 X160.166 Y95.474 E672.58826
G1 X159.298 Y99.185 E672.84406
G1 X157.767 Y104.869 E673.23905
G1 X157.712 Y104.982 E673.24753
G1 X157.433 Y105.840 E673.30806
G1 X156.797 Y107.472 E673.42563
G1 X156.149 Y108.778 E673.52344
G1 X155.559 Y109.857 E673.60596
G1 X154.731 Y111.048 E673.70335
G1 X153.994 Y112.033 E673.78586
G1 X153.001 Y113.091 E673.88325
G1 X152.132 Y113.960 E673.96576
G1 X150.995 Y114.862 E674.06315
G1 X150.011 Y115.599 E674.14566
G1 X148.755 Y116.326 E674.24305
G1 X147.676 Y116.915 E674.32556
G1 X146.327 Y117.451 E674.42295
G1 X145.175 Y117.881 E674.50546
G1 X142.562 Y118.476 E674.68531
G1 X140.000 Y118.692 E674.85785
G1 X137.438 Y118.476 E675.03039
G1 X136.237 Y118.215 E675.11286
G1 X134.825 Y117.881 E675.21025
G1 X133.673 Y117.451 E675.29276
G1 X132.324 Y116.915 E675.39015
G1 X131.245 Y116.326 E675.47266
G1 X129.989 Y115.599 E675.57004
G1 X129.005 Y114.862 E675.65256
G1 X127.868 Y113.960 E675.74995
G1 X126.999 Y113.091 E675.83246
G1 X126.006 Y112.033 E675.92985
G1 X125.269 Y111.048 E676.01236
G1 X124.441 Y109.857 E676.10975
G1 X123.851 Y108.778 E676.19226
G1 X123.203 Y107.472 E676.29007
G1 X122.567 Y105.840 E676.40765
G1 X122.288 Y104.982 E676.46817
G1 X122.231 Y104.865 E676.47693
G1 X121.805 Y103.339 E676.58323
G1 X120.810 Y99.600 E676.84289
G1 X120.252 Y97.303 E677.00151
G1 X119.783 Y95.238 E677.14366
G1 X119.628 Y94.426 E677.19911
G1 X119.283 Y91.757 E677.37969
G1 X119.283 Y89.089 E677.55877
G1 X119.617 Y86.347 E677.74415
G1 X119.706 Y85.899 E677.77480
G1 X119.989 Y84.829 E677.84906
G1 X120.353 Y83.710 E677.92802
G1 X120.723 Y82.721 E677.99889
G1 X121.296 Y81.326 E678.10009
G1 X121.937 Y80.178 E678.18833
G1 X122.519 Y79.224 E678.26336
G1 X122.019 Y78.830 F7800.000
G1 F1800
G1 X122.538 Y78.049 E678.29902
G1 X123.303 Y77.023 E678.34765
G1 X123.392 Y76.880 E678.35403
G1 X123.636 Y76.586 E678.36857
G1 X124.502 Y75.690 E678.41593
G1 X125.962 Y74.236 E678.49423
G1 X126.499 Y73.773 E678.52118
G1 X127.092 Y73.319 E678.54959
G1 X127.763 Y72.863 E678.58041
G1 X130.392 Y71.261 E678.69742
G1 X131.144 Y70.897 E678.72917
G1 X131.930 Y70.577 E678.76141
G1 X133.468 Y70.031 E678.82345
G1 X134.850 Y69.607 E678.87838
G1 X135.229 Y69.518 E678.89319
G1 X136.457 Y69.319 E678.94045
G1 X137.967 Y69.106 E678.99842
G1 X140.047 Y69.007 E679.07758
G1 X142.033 Y69.106 E679.15314
G1 X143.543 Y69.319 E679.21109
G1 X144.892 Y69.543 E679.26307
G1 X145.201 Y69.622 E679.27519
G1 X146.532 Y70.031 E679.32811
G1 X148.070 Y70.576 E679.39013
G1 X148.923 Y70.928 E679.42519
G1 X149.704 Y71.315 E679.45832
G1 X152.237 Y72.863 E679.57115
G1 X152.908 Y73.319 E679.60197
G1 X153.501 Y73.773 E679.63038
G1 X154.038 Y74.236 E679.65733
G1 X155.498 Y75.690 E679.73563
G1 X156.364 Y76.586 E679.78299
G1 X156.608 Y76.880 E679.79753
G1 X156.697 Y77.023 E679.80391
G1 X157.462 Y78.049 E679.85254
G1 X157.923 Y78.735 E679.88395
G1 X158.564 Y79.783 E679.93066
G1 X159.095 Y80.706 E679.97111
G1 X159.381 Y81.289 E679.99583
G1 X159.865 Y82.489 E680.04498
G1 X160.303 Y83.678 E680.09313
G1 X160.640 Y84.730 E680.13511
G1 X160.925 Y85.818 E680.17788
G1 X161.008 Y86.246 E680.19443
G1 X161.349 Y89.051 E680.30182
G1 X161.349 Y91.798 E680.40624
G1 X160.997 Y94.525 E680.51076
G1 X160.784 Y95.607 E680.55265
G1 X159.911 Y99.340 E680.69834
G1 X158.362 Y105.091 E680.92474
G1 X158.299 Y105.220 E680.93017
G1 X158.028 Y106.052 E680.96345
G1 X157.376 Y107.728 E681.03179
G1 X156.709 Y109.070 E681.08873
G1 X156.098 Y110.190 E681.13722
G1 X155.244 Y111.418 E681.19409
G1 X154.479 Y112.440 E681.24258
G1 X153.455 Y113.531 E681.29945
G1 X152.553 Y114.433 E681.34794
G1 X151.381 Y115.363 E681.40481
G1 X150.360 Y116.128 E681.45330
G1 X149.064 Y116.877 E681.51017
G1 X147.945 Y117.488 E681.55866
G1 X146.554 Y118.041 E681.61553
G1 X145.359 Y118.487 E681.66402
G1 X142.656 Y119.102 E681.76937
G1 X140.000 Y119.327 E681.87068
G1 X137.344 Y119.102 E681.97199
G1 X136.097 Y118.831 E682.02047
G1 X134.641 Y118.487 E682.07734
G1 X133.446 Y118.041 E682.12583
G1 X132.055 Y117.488 E682.18270
G1 X130.936 Y116.877 E682.23119
G1 X129.640 Y116.128 E682.28806
G1 X128.619 Y115.363 E682.33655
G1 X127.447 Y114.433 E682.39342
G1 X126.545 Y113.531 E682.44191
G1 X125.521 Y112.440 E682.49878
G1 X124.756 Y111.418 E682.54727
G1 X123.902 Y110.190 E682.60414
G1 X123.291 Y109.070 E682.65263
G1 X122.624 Y107.728 E682.70957
G1 X121.972 Y106.052 E682.77792
G1 X121.701 Y105.220 E682.81119
G1 X121.637 Y105.090 E682.81667
G1 X121.195 Y103.506 E682.87921
G1 X120.198 Y99.756 E683.02667
G1 X119.636 Y97.448 E683.11694
G1 X119.164 Y95.367 E683.19804
G1 X119.003 Y94.526 E683.23058
G1 X118.651 Y91.798 E683.33513
G1 X118.651 Y89.051 E683.43955
G1 X118.992 Y86.247 E683.54690
G1 X119.090 Y85.756 E683.56592
G1 X119.383 Y84.651 E683.60937
G1 X119.756 Y83.502 E683.65529
G1 X120.134 Y82.490 E683.69633
G1 X120.722 Y81.061 E683.75507
G1 X121.393 Y79.856 E683.80748
G1 X121.980 Y78.894 E683.85031
G1 X122.131 Y78.833 F7800.000
G1 X126.809 Y110.131 F7800.000
G1 F4800
G1 X127.659 Y111.285 E683.96732
G1 X128.569 Y112.255 E684.07586
G1 X129.350 Y113.036 E684.16607
G1 X130.392 Y113.863 E684.27461
G1 X130.985 Y114.307 E684.33516
G1 X126.113 Y109.435 E684.89761
G1 X125.542 Y108.613 E684.97933
G1 X125.013 Y107.643 E685.06953
G1 X124.413 Y106.436 E685.17957
G1 X123.822 Y104.919 E685.31243
G1 X123.556 Y104.100 E685.38274
G1 X136.165 Y116.710 E686.83849
G1 X138.044 Y117.138 E686.99575
G1 X139.492 Y117.260 E687.11442
G1 X122.491 Y100.259 E689.07721
G1 X122.111 Y98.832 E689.19768
G1 X121.556 Y96.547 E689.38967
G1 X142.186 Y117.177 E691.77134
G1 X142.656 Y117.138 E691.80985
G1 X144.506 Y116.721 E691.96466
G1 X120.867 Y93.081 E694.69377
G1 X120.637 Y91.300 E694.84034
G1 X120.637 Y90.074 E694.94041
G1 X146.572 Y116.009 E697.93448
G1 X147.299 Y115.720 E697.99835
G1 X148.434 Y115.095 E698.10416
G1 X120.804 Y87.465 E701.29389
G1 X120.950 Y86.269 E701.39227
G1 X121.017 Y85.936 E701.42001
G1 X121.233 Y85.117 E701.48913
G1 X150.118 Y114.002 E704.82377
G1 X151.346 Y113.036 E704.95128
G1 X151.637 Y112.744 E704.98495
G1 X121.940 Y83.047 E708.41342
G1 X122.488 Y81.707 E708.53158
G1 X122.807 Y81.137 E708.58489
G1 X152.997 Y111.327 E712.07023
G1 X153.699 Y110.401 E712.16514
G1 X154.170 Y109.723 E712.23247
G1 X123.855 Y79.408 E715.73223
G1 X124.097 Y79.046 E715.76779
G1 X125.024 Y77.801 E715.89453
G1 X155.178 Y107.955 E719.37572
G1 X155.587 Y107.132 E719.45076
G1 X156.020 Y106.020 E719.54815
G1 X126.400 Y76.400 E722.96771
G1 X127.201 Y75.601 E723.06007
G1 X127.844 Y75.068 E723.12829
G1 X156.701 Y103.924 E726.45969
G1 X157.290 Y101.737 E726.64463
G1 X129.519 Y73.966 E729.85068
G1 X131.252 Y72.922 E730.01582
G1 X157.880 Y99.549 E733.08987
G1 X158.418 Y97.311 E733.27780
G1 X133.228 Y72.121 E736.18587
G1 X133.853 Y71.900 E736.23994
G1 X135.113 Y71.513 E736.34754
G1 X135.343 Y71.459 E736.36687
G1 X158.932 Y95.048 E739.09008
G1 X159.040 Y94.498 E739.13586
G1 X159.282 Y92.622 E739.29028
G1 X137.756 Y71.095 E741.77542
G1 X139.697 Y70.995 E741.93408
G1 X140.471 Y71.034 E741.99738
G1 X159.363 Y89.926 E744.17836
G1 X159.363 Y89.540 E744.20985
G1 X159.020 Y86.806 E744.43480
G1 X143.622 Y71.407 E746.21247
G1 X144.219 Y71.521 E746.26211
G1 X145.451 Y71.900 E746.36732
G1 X146.887 Y72.408 E746.49166
G1 X147.784 Y72.793 E746.57136
G1 X157.608 Y82.617 E747.70549
M106 S255
G1 Z1.450 F7800.000
M106 S209.1
G1 Z1.550 F7800.000
G1 X123.123 Y79.505 F7800.000
G1 F3600
G1 X123.670 Y78.683 E747.77173
G1 X124.422 Y77.654 E747.85728
G1 X124.582 Y77.464 E747.87393
G1 X125.239 Y76.783 E747.93749
G1 X126.900 Y75.129 E748.09474
G1 X127.332 Y74.756 E748.13308
G1 X127.738 Y74.444 E748.16739
G1 X128.460 Y73.954 E748.22597
G1 X131.004 Y72.399 E748.42607
G1 X131.635 Y72.089 E748.47325
G1 X132.274 Y71.828 E748.51960
G1 X134.005 Y71.215 E748.64282
G1 X135.176 Y70.854 E748.72505
G1 X135.474 Y70.784 E748.74559
G1 X136.402 Y70.633 E748.80869
G1 X138.093 Y70.395 E748.92329
G1 X139.926 Y70.296 E749.04646
G1 X141.910 Y70.395 E749.17979
G1 X143.593 Y70.633 E749.29387
G1 X144.650 Y70.810 E749.36574
G1 X144.844 Y70.860 E749.37920
G1 X145.995 Y71.215 E749.46003
G1 X147.722 Y71.827 E749.58300
G1 X148.435 Y72.122 E749.63478
G1 X149.042 Y72.426 E749.68034
G1 X151.540 Y73.954 E749.87684
G1 X152.260 Y74.442 E749.93524
G1 X152.726 Y74.804 E749.97483
G1 X153.144 Y75.170 E750.01212
G1 X154.760 Y76.782 E750.16531
G1 X155.414 Y77.460 E750.22853
G1 X155.605 Y77.689 E750.24856
G1 X156.330 Y78.683 E750.33111
G1 X156.832 Y79.432 E750.39161
G1 X157.557 Y80.616 E750.48476
G1 X157.954 Y81.305 E750.53814
G1 X158.215 Y81.838 E750.57799
G1 X158.596 Y82.790 E750.64677
G1 X159.080 Y84.101 E750.74054
G1 X159.453 Y85.265 E750.82259
G1 X159.651 Y86.022 E750.87510
G1 X159.729 Y86.428 E750.90282
G1 X160.055 Y89.128 E751.08533
G1 X160.055 Y91.715 E751.25899
G1 X159.718 Y94.323 E751.43545
G1 X159.505 Y95.415 E751.51013
G1 X158.866 Y98.150 E751.69863
G1 X157.066 Y104.789 E752.16023
G1 X156.862 Y105.376 E752.20194
G1 X156.136 Y107.241 E752.33622
G1 X155.598 Y108.324 E752.41738
G1 X154.938 Y109.533 E752.50982
G1 X154.254 Y110.516 E752.59018
G1 X153.429 Y111.619 E752.68263
G1 X152.609 Y112.492 E752.76299
G1 X151.635 Y113.466 E752.85543
G1 X150.697 Y114.211 E752.93579
G1 X149.595 Y115.036 E753.02823
G1 X148.558 Y115.636 E753.10859
G1 X147.349 Y116.296 E753.20103
G1 X146.237 Y116.738 E753.28139
G1 X144.946 Y117.220 E753.37383
G1 X142.436 Y117.787 E753.54652
G1 X140.000 Y117.993 E753.71058
G1 X137.564 Y117.787 E753.87463
G1 X136.219 Y117.495 E753.96698
G1 X135.054 Y117.220 E754.04734
G1 X133.763 Y116.738 E754.13978
G1 X132.651 Y116.296 E754.22013
G1 X131.442 Y115.636 E754.31258
G1 X130.405 Y115.036 E754.39293
G1 X129.303 Y114.211 E754.48537
G1 X128.365 Y113.466 E754.56573
G1 X127.391 Y112.492 E754.65818
G1 X126.571 Y111.619 E754.73854
G1 X125.746 Y110.516 E754.83098
G1 X125.062 Y109.533 E754.91134
G1 X124.402 Y108.324 E755.00378
G1 X123.864 Y107.241 E755.08494
G1 X123.138 Y105.376 E755.21922
G1 X122.931 Y104.781 E755.26153
G1 X122.343 Y102.698 E755.40681
G1 X121.216 Y98.464 E755.70082
G1 X120.495 Y95.413 E755.91119
G1 X120.282 Y94.323 E755.98572
G1 X119.945 Y91.715 E756.16218
G1 X119.945 Y89.128 E756.33584
G1 X120.270 Y86.434 E756.51794
G1 X120.365 Y85.959 E756.55044
G1 X120.597 Y85.094 E756.61054
G1 X120.976 Y83.933 E756.69246
G1 X121.402 Y82.793 E756.77416
G1 X121.793 Y81.820 E756.84453
G1 X121.907 Y81.571 E756.86289
G1 X122.399 Y80.691 E756.93055
G1 X123.084 Y79.569 E757.01879
G1 X122.435 Y79.084 F7800.000
G1 F3600
G1 X123.011 Y78.217 E757.08868
G1 X123.774 Y77.170 E757.17559
G1 X123.982 Y76.923 E757.19728
G1 X124.664 Y76.216 E757.26320
G1 X126.351 Y74.537 E757.42292
G1 X126.822 Y74.130 E757.46473
G1 X127.265 Y73.790 E757.50218
G1 X128.022 Y73.275 E757.56364
G1 X130.615 Y71.691 E757.76752
G1 X131.304 Y71.353 E757.81905
G1 X131.987 Y71.074 E757.86856
G1 X133.755 Y70.447 E757.99447
G1 X134.940 Y70.081 E758.07768
G1 X135.317 Y69.992 E758.10365
G1 X136.281 Y69.835 E758.16922
G1 X138.015 Y69.591 E758.28672
G1 X139.924 Y69.488 E758.41505
G1 X141.987 Y69.591 E758.55364
G1 X143.717 Y69.835 E758.67087
G1 X144.817 Y70.020 E758.74576
G1 X145.100 Y70.093 E758.76537
G1 X146.245 Y70.447 E758.84577
G1 X148.011 Y71.073 E758.97156
G1 X148.770 Y71.387 E759.02669
G1 X149.434 Y71.720 E759.07649
G1 X151.977 Y73.275 E759.27658
G1 X152.734 Y73.789 E759.33795
G1 X153.240 Y74.181 E759.38089
G1 X153.696 Y74.580 E759.42157
G1 X155.336 Y76.216 E759.57701
G1 X156.016 Y76.921 E759.64275
G1 X156.262 Y77.216 E759.66855
G1 X156.357 Y77.370 E759.68067
G1 X156.989 Y78.217 E759.75159
G1 X157.512 Y78.996 E759.81457
G1 X158.251 Y80.204 E759.90958
G1 X158.667 Y80.926 E759.96551
G1 X158.953 Y81.510 E760.00918
G1 X159.350 Y82.500 E760.08071
G1 X159.843 Y83.838 E760.17642
G1 X160.228 Y85.039 E760.26109
G1 X160.439 Y85.843 E760.31684
G1 X160.527 Y86.303 E760.34827
G1 X160.862 Y89.079 E760.53593
G1 X160.862 Y91.767 E760.71632
G1 X160.515 Y94.452 E760.89801
G1 X160.294 Y95.585 E760.97544
G1 X159.648 Y98.348 E761.16588
G1 X157.838 Y105.028 E761.63034
G1 X157.619 Y105.656 E761.67494
G1 X156.875 Y107.568 E761.81263
G1 X156.314 Y108.697 E761.89728
G1 X155.625 Y109.958 E761.99368
G1 X154.909 Y110.989 E762.07791
G1 X154.048 Y112.139 E762.17432
G1 X153.189 Y113.054 E762.25855
G1 X152.173 Y114.070 E762.35496
G1 X151.190 Y114.850 E762.43919
G1 X150.040 Y115.711 E762.53560
G1 X148.954 Y116.339 E762.61982
G1 X147.693 Y117.028 E762.71623
G1 X146.527 Y117.491 E762.80046
G1 X145.181 Y117.993 E762.89686
G1 X142.556 Y118.587 E763.07744
G1 X140.000 Y118.803 E763.24959
G1 X137.444 Y118.587 E763.42174
G1 X136.041 Y118.282 E763.51810
G1 X134.819 Y117.993 E763.60233
G1 X133.473 Y117.491 E763.69873
G1 X132.307 Y117.028 E763.78296
G1 X131.046 Y116.339 E763.87937
G1 X129.960 Y115.711 E763.96359
G1 X128.810 Y114.850 E764.06000
G1 X127.827 Y114.070 E764.14423
G1 X126.811 Y113.054 E764.24064
G1 X125.952 Y112.139 E764.32487
G1 X125.091 Y110.989 E764.42128
G1 X124.375 Y109.958 E764.50551
G1 X123.686 Y108.697 E764.60191
G1 X123.125 Y107.568 E764.68656
G1 X122.381 Y105.656 E764.82425
G1 X122.161 Y105.024 E764.86916
G1 X121.564 Y102.911 E765.01648
G1 X120.433 Y98.660 E765.31165
G1 X119.706 Y95.583 E765.52384
G1 X119.485 Y94.452 E765.60118
G1 X119.138 Y91.767 E765.78288
G1 X119.138 Y89.079 E765.96326
G1 X119.472 Y86.306 E766.15072
G1 X119.579 Y85.775 E766.18707
G1 X119.823 Y84.864 E766.25038
G1 X120.214 Y83.667 E766.33488
G1 X120.650 Y82.502 E766.41836
G1 X121.051 Y81.501 E766.49072
G1 X121.187 Y81.205 E766.51256
G1 X121.702 Y80.284 E766.58338
G1 X122.396 Y79.148 E766.67269
G1 X121.895 Y78.755 F7800.000
G1 F1800
G1 X122.495 Y77.852 E766.71389
G1 X123.118 Y77.016 E766.75350
G1 X123.266 Y76.792 E766.76372
G1 X123.512 Y76.499 E766.77824
G1 X124.214 Y75.773 E766.81663
G1 X125.920 Y74.073 E766.90817
G1 X126.423 Y73.639 E766.93340
G1 X126.894 Y73.277 E766.95599
G1 X127.680 Y72.744 E766.99208
G1 X130.310 Y71.137 E767.10922
G1 X131.045 Y70.776 E767.14033
G1 X131.762 Y70.483 E767.16977
G1 X133.560 Y69.846 E767.24227
G1 X134.560 Y69.549 E767.28193
G1 X134.755 Y69.475 E767.28985
G1 X135.193 Y69.372 E767.30697
G1 X136.186 Y69.210 E767.34520
G1 X137.954 Y68.961 E767.41303
G1 X139.983 Y68.852 E767.49026
G1 X142.047 Y68.961 E767.56883
G1 X143.813 Y69.210 E767.63662
G1 X144.948 Y69.401 E767.68038
G1 X145.301 Y69.492 E767.69420
G1 X145.436 Y69.548 E767.69977
G1 X146.440 Y69.846 E767.73958
G1 X148.238 Y70.483 E767.81206
G1 X149.033 Y70.812 E767.84477
G1 X149.741 Y71.166 E767.87486
G1 X152.320 Y72.744 E767.98976
G1 X153.105 Y73.277 E768.02584
G1 X153.642 Y73.693 E768.05165
G1 X154.128 Y74.119 E768.07619
G1 X155.786 Y75.773 E768.16521
G1 X156.487 Y76.499 E768.20357
G1 X156.776 Y76.846 E768.22073
G1 X156.880 Y77.014 E768.22823
G1 X157.505 Y77.852 E768.26797
G1 X158.044 Y78.655 E768.30474
G1 X158.795 Y79.881 E768.35936
G1 X159.225 Y80.629 E768.39217
G1 X159.531 Y81.254 E768.41860
G1 X159.940 Y82.273 E768.46033
G1 X160.441 Y83.632 E768.51539
G1 X160.835 Y84.863 E768.56451
G1 X161.056 Y85.703 E768.59752
G1 X161.152 Y86.205 E768.61696
G1 X161.494 Y89.041 E768.72553
G1 X161.494 Y91.808 E768.83068
G1 X161.140 Y94.553 E768.93590
G1 X160.912 Y95.717 E768.98096
G1 X160.261 Y98.503 E769.08968
G1 X158.442 Y105.215 E769.35399
G1 X158.212 Y105.874 E769.38053
G1 X157.454 Y107.823 E769.46002
G1 X156.874 Y108.989 E769.50950
G1 X156.164 Y110.291 E769.56586
G1 X155.422 Y111.358 E769.61528
G1 X154.533 Y112.546 E769.67164
G1 X153.643 Y113.494 E769.72106
G1 X152.595 Y114.542 E769.77742
G1 X151.576 Y115.351 E769.82683
G1 X150.389 Y116.239 E769.88319
G1 X149.264 Y116.890 E769.93261
G1 X147.962 Y117.601 E769.98897
G1 X146.754 Y118.081 E770.03839
G1 X145.364 Y118.599 E770.09474
G1 X142.650 Y119.214 E770.20051
G1 X140.000 Y119.437 E770.30159
G1 X137.350 Y119.214 E770.40268
G1 X135.901 Y118.898 E770.45903
G1 X134.636 Y118.599 E770.50845
G1 X133.246 Y118.081 E770.56480
G1 X132.038 Y117.601 E770.61422
G1 X130.736 Y116.890 E770.67058
G1 X129.611 Y116.239 E770.72000
G1 X128.424 Y115.351 E770.77636
G1 X127.405 Y114.542 E770.82577
G1 X126.357 Y113.494 E770.88213
G1 X125.467 Y112.546 E770.93155
G1 X124.578 Y111.358 E770.98791
G1 X123.836 Y110.291 E771.03733
G1 X123.126 Y108.989 E771.09368
G1 X122.546 Y107.823 E771.14317
G1 X121.788 Y105.874 E771.22266
G1 X121.557 Y105.214 E771.24925
G1 X120.955 Y103.078 E771.33358
G1 X119.820 Y98.814 E771.50127
G1 X119.088 Y95.717 E771.62224
G1 X118.860 Y94.553 E771.66730
G1 X118.506 Y91.808 E771.77251
G1 X118.506 Y89.041 E771.87766
G1 X118.848 Y86.206 E771.98619
G1 X118.963 Y85.631 E772.00850
G1 X119.217 Y84.683 E772.04577
G1 X119.618 Y83.458 E772.09478
G1 X120.060 Y82.273 E772.14284
G1 X120.470 Y81.251 E772.18470
G1 X120.623 Y80.918 E772.19861
G1 X121.156 Y79.965 E772.24013
G1 X121.856 Y78.819 E772.29117
G1 X122.012 Y78.758 F7800.000
G1 X131.825 Y73.183 F7800.000
G1 F4800
G1 X131.088 Y73.532 E772.35778
G1 X128.597 Y75.054 E772.59609
G1 X127.914 Y75.517 E772.66345
G1 X127.549 Y75.797 E772.70097
G1 X127.160 Y76.133 E772.74292
G1 X125.529 Y77.758 E772.93088
G1 X124.778 Y78.554 E773.02021
G1 X124.055 Y79.544 E773.12029
G1 X123.574 Y80.262 E773.19082
G1 X122.823 Y81.490 E773.30836
G1 X122.366 Y82.309 E773.38493
G1 X122.131 Y82.878 E773.43517
G1 X132.521 Y72.488 E774.63469
G1 X132.941 Y72.316 E774.67172
G1 X134.634 Y71.716 E774.81834
G1 X135.758 Y71.370 E774.91438
G1 X136.564 Y71.222 E774.98121
G1 X120.798 Y86.988 E776.80130
G1 X120.492 Y89.529 E777.01026
G1 X120.492 Y90.071 E777.05447
G1 X139.687 Y70.876 E779.27047
G1 X140.275 Y70.844 E779.31858
G1 X142.173 Y70.939 E779.47368
G1 X142.372 Y70.967 E779.49012
G1 X120.588 Y92.751 E782.00504
G1 X120.817 Y94.528 E782.15128
G1 X120.943 Y95.173 E782.20492
G1 X144.783 Y71.333 E784.95712
G1 X146.062 Y71.716 E785.06607
G1 X146.885 Y72.008 E785.13739
G1 X121.461 Y97.432 E788.07246
G1 X121.736 Y98.594 E788.16993
G1 X122.018 Y99.652 E788.25934
G1 X148.858 Y72.812 E791.35794
G1 X150.587 Y73.859 E791.52300
G1 X122.601 Y101.845 E794.75391
G1 X123.200 Y104.023 E794.93829
G1 X152.264 Y74.959 E798.29357
G1 X152.880 Y75.476 E798.35922
G1 X153.703 Y76.297 E798.45411
G1 X123.897 Y106.103 E801.89511
G1 X124.335 Y107.227 E801.99359
G1 X124.738 Y108.039 E802.06758
G1 X155.082 Y77.695 E805.57065
G1 X155.247 Y77.891 E805.59160
G1 X155.945 Y78.848 E805.68827
G1 X156.250 Y79.303 E805.73302
G1 X125.750 Y109.804 E809.25415
G1 X126.123 Y110.341 E809.30754
G1 X126.924 Y111.406 E809.41636
G1 X157.307 Y81.023 E812.92402
G1 X157.512 Y81.377 E812.95741
G1 X157.745 Y81.854 E813.00073
G1 X158.173 Y82.935 E813.09559
G1 X128.287 Y112.820 E816.54572
G1 X128.613 Y113.145 E816.58330
G1 X129.806 Y114.078 E816.70692
G1 X158.887 Y84.997 E820.06424
G1 X159.127 Y85.872 E820.13832
G1 X159.193 Y86.218 E820.16706
G1 X159.327 Y87.333 E820.25877
G1 X131.484 Y115.176 E823.47314
G1 X132.684 Y115.833 E823.58474
G1 X133.343 Y116.095 E823.64264
G1 X159.508 Y89.929 E826.66332
G1 X159.508 Y91.310 E826.77601
G1 X159.301 Y92.913 E826.90797
G1 X135.406 Y116.809 E829.66662
G1 X137.353 Y117.249 E829.82960
G1 X137.712 Y117.279 E829.85898
G1 X158.632 Y96.359 E832.27419
G1 X158.346 Y97.584 E832.37688
G1 X157.663 Y100.105 E832.59014
G1 X140.387 Y117.381 E834.58456
G1 X141.955 Y117.249 E834.71301
G1 X143.679 Y116.865 E834.85722
G1 X156.630 Y103.914 E836.35236
G1 X156.559 Y104.177 E836.37458
G1 X156.370 Y104.719 E836.42143
G1 X155.665 Y106.531 E836.58017
G1 X155.153 Y107.563 E836.67419
G1 X154.524 Y108.714 E836.78130
G1 X154.333 Y108.988 E836.80854
G1 X148.592 Y114.729 E837.47133
G1 Z1.750 F7800.000
G1 X122.999 Y79.430 F7800.000
G1 F3600
G1 X123.627 Y78.486 E837.54743
G1 X124.261 Y77.611 E837.61996
G1 X124.459 Y77.376 E837.64057
G1 X126.862 Y74.962 E837.86914
G1 X127.544 Y74.400 E837.92851
G1 X128.377 Y73.835 E837.99604
G1 X130.976 Y72.245 E838.20050
G1 X131.537 Y71.967 E838.24254
G1 X132.107 Y71.734 E838.28380
G1 X134.098 Y71.029 E838.42557
G1 X135.079 Y70.722 E838.49454
G1 X135.369 Y70.652 E838.51457
G1 X136.135 Y70.525 E838.56667
G1 X138.080 Y70.250 E838.69849
G1 X139.916 Y70.150 E838.82193
G1 X141.924 Y70.250 E838.95683
G1 X143.862 Y70.524 E839.08817
G1 X144.704 Y70.668 E839.14553
G1 X144.955 Y70.732 E839.16291
G1 X145.086 Y70.786 E839.17241
G1 X145.902 Y71.029 E839.22954
G1 X147.889 Y71.733 E839.37101
G1 X148.541 Y72.003 E839.41838
G1 X149.076 Y72.275 E839.45862
G1 X151.633 Y73.841 E839.65985
G1 X152.173 Y74.196 E839.70326
G1 X152.612 Y74.520 E839.73987
G1 X153.198 Y75.019 E839.79151
G1 X155.542 Y77.378 E840.01465
G1 X155.793 Y77.685 E840.04128
G1 X155.854 Y77.791 E840.04949
G1 X156.373 Y78.486 E840.10772
G1 X156.954 Y79.352 E840.17768
G1 X157.787 Y80.713 E840.28477
G1 X158.119 Y81.291 E840.32948
G1 X158.361 Y81.795 E840.36705
G1 X158.670 Y82.572 E840.42312
G1 X159.218 Y84.055 E840.52926
G1 X159.647 Y85.395 E840.62369
G1 X159.801 Y85.991 E840.66497
G1 X159.873 Y86.380 E840.69151
G1 X160.200 Y89.117 E840.87653
G1 X160.200 Y91.725 E841.05152
G1 X159.860 Y94.354 E841.22944
G1 X159.658 Y95.415 E841.30191
G1 X159.216 Y97.313 E841.43272
G1 X157.480 Y103.761 E841.88078
G1 X157.132 Y104.947 E841.96372
G1 X156.213 Y107.339 E842.13574
G1 X155.763 Y108.243 E842.20351
G1 X155.004 Y109.634 E842.30985
G1 X154.432 Y110.456 E842.37705
G1 X153.483 Y111.725 E842.48339
G1 X152.797 Y112.455 E842.55059
G1 X151.677 Y113.576 E842.65693
G1 X150.893 Y114.198 E842.72413
G1 X149.624 Y115.148 E842.83047
G1 X148.757 Y115.649 E842.89766
G1 X147.367 Y116.408 E843.00400
G1 X146.436 Y116.778 E843.07120
G1 X144.952 Y117.332 E843.17753
G1 X142.430 Y117.899 E843.35095
G1 X140.000 Y118.103 E843.51462
G1 X137.570 Y117.899 E843.67829
G1 X136.023 Y117.562 E843.78452
G1 X135.048 Y117.332 E843.85172
G1 X133.564 Y116.778 E843.95805
G1 X132.633 Y116.408 E844.02525
G1 X131.243 Y115.649 E844.13159
G1 X130.376 Y115.148 E844.19878
G1 X129.107 Y114.198 E844.30512
G1 X128.323 Y113.576 E844.37232
G1 X127.203 Y112.455 E844.47866
G1 X126.517 Y111.725 E844.54586
G1 X125.568 Y110.456 E844.65220
G1 X124.996 Y109.634 E844.71939
G1 X124.237 Y108.243 E844.82573
G1 X123.788 Y107.339 E844.89348
G1 X122.860 Y104.923 E845.06717
G1 X122.102 Y102.268 E845.25249
G1 X120.839 Y97.521 E845.58211
G1 X120.366 Y95.525 E845.71980
G1 X120.139 Y94.352 E845.79995
G1 X119.800 Y91.725 E845.97772
G1 X119.800 Y89.117 E846.15272
G1 X120.126 Y86.392 E846.33689
G1 X120.237 Y85.835 E846.37501
G1 X120.409 Y85.203 E846.41897
G1 X120.838 Y83.889 E846.51174
G1 X121.644 Y81.782 E846.66314
G1 X121.780 Y81.487 E846.68493
G1 X122.218 Y80.705 E846.74507
G1 X122.959 Y79.494 E846.84037
G1 X122.310 Y79.009 F7800.000
G1 F3600
G1 X122.968 Y78.020 E846.92007
G1 X123.453 Y77.370 E846.97451
G1 X123.613 Y77.128 E846.99397
G1 X123.859 Y76.835 E847.01961
G1 X126.311 Y74.372 E847.25287
G1 X126.675 Y74.054 E847.28529
G1 X127.069 Y73.747 E847.31884
G1 X127.939 Y73.156 E847.38943
G1 X130.586 Y71.538 E847.59760
G1 X131.205 Y71.231 E847.64398
G1 X131.819 Y70.980 E847.68849
G1 X133.848 Y70.261 E847.83296
G1 X134.630 Y70.029 E847.88773
G1 X134.840 Y69.949 E847.90277
G1 X135.207 Y69.860 E847.92813
G1 X136.012 Y69.727 E847.98287
G1 X138.001 Y69.446 E848.11768
G1 X139.939 Y69.340 E848.24789
G1 X142.001 Y69.446 E848.38646
G1 X143.986 Y69.727 E848.52101
G1 X144.873 Y69.878 E848.58139
G1 X145.212 Y69.965 E848.60486
G1 X145.356 Y70.025 E848.61535
G1 X146.152 Y70.261 E848.67107
G1 X148.179 Y70.979 E848.81538
G1 X148.879 Y71.270 E848.86625
G1 X149.470 Y71.570 E848.91071
G1 X152.066 Y73.159 E849.11499
G1 X152.635 Y73.534 E849.16072
G1 X153.114 Y73.887 E849.20069
G1 X153.747 Y74.427 E849.25649
G1 X156.141 Y76.836 E849.48445
G1 X156.460 Y77.225 E849.51822
G1 X156.530 Y77.348 E849.52766
G1 X157.032 Y78.020 E849.58396
G1 X157.633 Y78.917 E849.65640
G1 X158.481 Y80.301 E849.76536
G1 X158.833 Y80.914 E849.81281
G1 X159.101 Y81.471 E849.85427
G1 X159.423 Y82.283 E849.91288
G1 X159.981 Y83.792 E850.02088
G1 X160.423 Y85.171 E850.11805
G1 X160.590 Y85.816 E850.16277
G1 X160.671 Y86.259 E850.19295
G1 X161.007 Y89.069 E850.38292
G1 X161.007 Y91.777 E850.56461
G1 X160.658 Y94.482 E850.74765
G1 X160.448 Y95.580 E850.82270
G1 X159.998 Y97.511 E850.95573
G1 X158.257 Y103.979 E851.40527
G1 X157.898 Y105.205 E851.49101
G1 X156.952 Y107.664 E851.66780
G1 X156.479 Y108.617 E851.73916
G1 X155.691 Y110.059 E851.84947
G1 X155.087 Y110.929 E851.92054
G1 X154.102 Y112.245 E852.03084
G1 X153.377 Y113.017 E852.10191
G1 X152.215 Y114.179 E852.21221
G1 X151.385 Y114.837 E852.28328
G1 X150.070 Y115.822 E852.39358
G1 X149.153 Y116.353 E852.46465
G1 X147.710 Y117.140 E852.57495
G1 X146.726 Y117.532 E852.64602
G1 X145.186 Y118.106 E852.75632
G1 X142.550 Y118.699 E852.93763
G1 X140.000 Y118.913 E853.10939
G1 X137.450 Y118.699 E853.28115
G1 X135.844 Y118.349 E853.39139
G1 X134.814 Y118.106 E853.46246
G1 X133.274 Y117.532 E853.57276
G1 X132.290 Y117.140 E853.64383
G1 X130.847 Y116.353 E853.75413
G1 X129.930 Y115.822 E853.82520
G1 X128.615 Y114.837 E853.93550
G1 X127.785 Y114.179 E854.00657
G1 X126.623 Y113.017 E854.11688
G1 X125.898 Y112.245 E854.18794
G1 X124.913 Y110.929 E854.29825
G1 X124.309 Y110.059 E854.36932
G1 X123.521 Y108.617 E854.47962
G1 X123.048 Y107.664 E854.55097
G1 X122.094 Y105.179 E854.72963
G1 X121.324 Y102.482 E854.91783
G1 X120.056 Y97.718 E855.24870
G1 X119.577 Y95.694 E855.38825
G1 X119.342 Y94.481 E855.47121
G1 X118.993 Y91.777 E855.65417
G1 X118.993 Y89.069 E855.83586
G1 X119.328 Y86.265 E856.02540
G1 X119.451 Y85.650 E856.06748
G1 X119.635 Y84.972 E856.11464
G1 X120.076 Y83.622 E856.20992
G1 X120.902 Y81.464 E856.36500
G1 X121.060 Y81.120 E856.39039
G1 X121.521 Y80.297 E856.45372
G1 X122.271 Y79.073 E856.55007
G1 X121.771 Y78.679 F7800.000
G1 F1800
G1 X122.452 Y77.655 E856.59681
G1 X122.936 Y77.007 E856.62753
G1 X123.105 Y76.749 E856.63926
G1 X123.389 Y76.412 E856.65601
G1 X125.880 Y73.909 E856.79020
G1 X126.272 Y73.566 E856.81002
G1 X126.697 Y73.236 E856.83048
G1 X127.597 Y72.625 E856.87181
G1 X130.280 Y70.984 E856.99134
G1 X130.945 Y70.654 E857.01954
G1 X131.594 Y70.389 E857.04618
G1 X133.652 Y69.660 E857.12920
G1 X134.429 Y69.429 E857.15997
G1 X134.653 Y69.344 E857.16910
G1 X135.081 Y69.241 E857.18583
G1 X135.916 Y69.102 E857.21800
G1 X137.940 Y68.816 E857.29567
G1 X139.983 Y68.705 E857.37343
G1 X142.061 Y68.816 E857.45253
G1 X144.083 Y69.102 E857.53015
G1 X145.005 Y69.259 E857.56569
G1 X145.412 Y69.364 E857.58168
G1 X145.568 Y69.428 E857.58807
G1 X146.348 Y69.660 E857.61899
G1 X148.406 Y70.389 E857.70198
G1 X149.144 Y70.695 E857.73234
G1 X149.778 Y71.017 E857.75940
G1 X152.405 Y72.626 E857.87644
G1 X152.996 Y73.015 E857.90336
G1 X153.508 Y73.392 E857.92750
G1 X154.177 Y73.963 E857.96094
G1 X156.611 Y76.412 E858.09218
G1 X156.983 Y76.866 E858.11447
G1 X157.060 Y77.001 E858.12037
G1 X157.548 Y77.655 E858.15139
G1 X158.165 Y78.575 E858.19352
G1 X159.025 Y79.979 E858.25605
G1 X159.393 Y80.619 E858.28415
G1 X159.680 Y81.217 E858.30935
G1 X160.014 Y82.056 E858.34367
G1 X160.579 Y83.586 E858.40566
G1 X161.030 Y84.996 E858.46190
G1 X161.207 Y85.680 E858.48876
G1 X161.297 Y86.164 E858.50746
G1 X161.639 Y89.032 E858.61724
G1 X161.639 Y91.817 E858.72311
G1 X161.282 Y94.582 E858.82905
G1 X161.067 Y95.710 E858.87269
G1 X160.611 Y97.666 E858.94903
G1 X158.866 Y104.151 E859.20427
G1 X158.497 Y105.408 E859.25407
G1 X157.532 Y107.919 E859.35630
G1 X157.040 Y108.909 E859.39832
G1 X156.230 Y110.392 E859.46254
G1 X155.600 Y111.299 E859.50451
G1 X154.587 Y112.651 E859.56874
G1 X153.831 Y113.457 E859.61070
G1 X152.636 Y114.652 E859.67493
G1 X151.771 Y115.338 E859.71689
G1 X150.418 Y116.351 E859.78112
G1 X149.463 Y116.904 E859.82309
G1 X147.980 Y117.714 E859.88731
G1 X146.953 Y118.121 E859.92928
G1 X145.370 Y118.712 E859.99351
G1 X142.644 Y119.325 E860.09968
G1 X140.000 Y119.547 E860.20055
G1 X137.356 Y119.325 E860.30141
G1 X135.704 Y118.966 E860.36563
G1 X134.630 Y118.712 E860.40759
G1 X133.047 Y118.121 E860.47182
G1 X132.020 Y117.714 E860.51378
G1 X130.537 Y116.904 E860.57801
G1 X129.582 Y116.351 E860.61997
G1 X128.229 Y115.338 E860.68420
G1 X127.364 Y114.652 E860.72617
G1 X126.169 Y113.457 E860.79040
G1 X125.413 Y112.651 E860.83236
G1 X124.401 Y111.299 E860.89659
G1 X123.770 Y110.392 E860.93855
G1 X122.960 Y108.909 E861.00278
G1 X122.468 Y107.919 E861.04479
G1 X121.494 Y105.379 E861.14818
G1 X120.715 Y102.650 E861.25604
G1 X119.443 Y97.872 E861.44397
G1 X118.959 Y95.827 E861.52383
G1 X118.718 Y94.581 E861.57206
G1 X118.361 Y91.817 E861.67798
G1 X118.361 Y89.032 E861.78385
G1 X118.703 Y86.165 E861.89356
G1 X118.835 Y85.505 E861.91916
G1 X119.029 Y84.791 E861.94729
G1 X119.479 Y83.413 E862.00236
G1 X120.321 Y81.215 E862.09182
G1 X120.496 Y80.833 E862.10780
G1 X120.976 Y79.977 E862.14508
G1 X121.732 Y78.743 E862.20011
G1 X121.893 Y78.682 F7800.000
G1 X126.005 Y109.327 F7800.000
G1 F4800
G1 X126.106 Y109.511 E862.21723
G1 X126.641 Y110.281 E862.29376
G1 X127.551 Y111.497 E862.41777
G1 X128.193 Y112.181 E862.49429
G1 X129.267 Y113.255 E862.61830
G1 X130.001 Y113.837 E862.69482
G1 X131.217 Y114.748 E862.81883
G1 X131.713 Y115.034 E862.86555
G1 X125.310 Y108.631 E863.60475
G1 X124.682 Y107.482 E863.71164
G1 X124.260 Y106.632 E863.78917
G1 X123.361 Y104.292 E863.99378
G1 X123.207 Y103.752 E864.03959
G1 X136.470 Y117.014 E865.57069
G1 X138.051 Y117.360 E865.70279
G1 X139.734 Y117.502 E865.84067
G1 X122.146 Y99.914 E867.87113
G1 X121.358 Y96.955 E868.12103
G1 X121.171 Y96.162 E868.18759
G1 X142.390 Y117.382 E870.63732
G1 X142.645 Y117.360 E870.65819
G1 X144.690 Y116.905 E870.82923
G1 X120.531 Y92.745 E873.61835
G1 X120.347 Y91.320 E873.73570
G1 X120.347 Y89.784 E873.86102
G1 X146.743 Y116.180 E876.90830
G1 X147.334 Y115.945 E876.96022
G1 X148.595 Y115.256 E877.07758
G1 X120.540 Y87.201 E880.31643
G1 X120.662 Y86.185 E880.39995
G1 X120.760 Y85.693 E880.44097
G1 X120.994 Y84.878 E880.51014
G1 X150.271 Y114.155 E883.88999
G1 X151.429 Y113.255 E884.00971
G1 X151.788 Y112.895 E884.05120
G1 X121.714 Y82.821 E887.52314
G1 X122.119 Y81.786 E887.61383
G1 X122.230 Y81.545 E887.63549
G1 X122.583 Y80.914 E887.69459
G1 X153.154 Y111.484 E891.22382
G1 X154.055 Y110.281 E891.34653
G1 X154.330 Y109.884 E891.38597
G1 X123.645 Y79.199 E894.92847
G1 X124.013 Y78.650 E894.98242
G1 X124.618 Y77.814 E895.06664
G1 X124.812 Y77.589 E895.09090
G1 X155.345 Y108.122 E898.61582
G1 X155.741 Y107.327 E898.68834
G1 X156.181 Y106.181 E898.78853
G1 X126.195 Y76.195 E902.25034
G1 X127.124 Y75.269 E902.35743
G1 X127.410 Y75.019 E902.38841
G1 X127.627 Y74.850 E902.41087
G1 X156.894 Y104.117 E905.78958
G1 X157.489 Y101.935 E905.97420
G1 X129.307 Y73.754 E909.22763
G1 X131.030 Y72.700 E909.39251
G1 X158.079 Y99.748 E912.51515
G1 X158.665 Y97.558 E912.70024
G1 X133.002 Y71.895 E915.66299
G1 X134.033 Y71.529 E915.75228
G1 X135.091 Y71.207 E915.84258
G1 X159.183 Y95.299 E918.62395
G1 X159.325 Y94.561 E918.68535
G1 X159.541 Y92.881 E918.82364
G1 X137.499 Y70.838 E921.36835
G1 X137.819 Y70.793 E921.39471
G1 X139.570 Y70.698 E921.53791
G1 X140.165 Y70.728 E921.58651
G1 X159.653 Y90.216 E923.83634
G1 X159.653 Y89.518 E923.89326
G1 X159.371 Y87.157 E924.08739
G1 X143.258 Y71.043 E925.94764
G1 X144.323 Y71.235 E926.03602
G1 X145.278 Y71.531 E926.11760
G1 X147.206 Y72.215 E926.28463
G1 X158.150 Y83.159 E927.54810
M106 S255
G1 Z1.825 F7800.000
M106 S209.1
G1 Z1.950 F7800.000
G1 X122.875 Y79.354 F7800.000
G1 F3600
G1 X123.584 Y78.289 E927.63398
G1 X123.991 Y77.745 E927.67957
G1 X124.044 Y77.639 E927.68750
G1 X124.336 Y77.288 E927.71819
G1 X126.822 Y74.798 E927.95430
G1 X127.439 Y74.290 E928.00796
G1 X128.291 Y73.717 E928.07682
G1 X130.949 Y72.090 E928.28598
G1 X131.440 Y71.844 E928.32286
G1 X131.939 Y71.640 E928.35900
G1 X134.191 Y70.842 E928.51932
G1 X134.976 Y70.591 E928.57467
G1 X135.325 Y70.507 E928.59875
G1 X135.866 Y70.416 E928.63557
G1 X138.066 Y70.105 E928.78469
G1 X139.907 Y70.004 E928.90841
G1 X141.938 Y70.106 E929.04487
G1 X144.129 Y70.415 E929.19338
G1 X144.752 Y70.524 E929.23581
G1 X145.090 Y70.613 E929.25930
G1 X145.181 Y70.656 E929.26600
G1 X145.814 Y70.844 E929.31033
G1 X148.051 Y71.636 E929.46961
G1 X148.646 Y71.884 E929.51287
G1 X149.109 Y72.123 E929.54779
G1 X151.716 Y73.721 E929.75302
G1 X152.675 Y74.376 E929.83095
G1 X153.247 Y74.864 E929.88140
G1 X155.666 Y77.291 E930.11137
G1 X155.966 Y77.658 E930.14317
G1 X156.037 Y77.782 E930.15274
G1 X156.416 Y78.289 E930.19527
G1 X157.075 Y79.272 E930.27469
G1 X158.014 Y80.806 E930.39541
G1 X158.304 Y81.318 E930.43488
G1 X158.502 Y81.740 E930.46618
G1 X159.302 Y83.849 E930.61754
G1 X159.748 Y85.211 E930.71370
G1 X159.917 Y85.815 E930.75578
G1 X159.997 Y86.202 E930.78231
G1 X160.345 Y89.108 E930.97874
G1 X160.345 Y91.735 E931.15498
G1 X160.003 Y94.382 E931.33413
G1 X159.773 Y95.586 E931.41641
G1 X159.462 Y96.868 E931.50490
G1 X157.753 Y103.216 E931.94606
G1 X157.202 Y105.091 E932.07723
G1 X156.292 Y107.431 E932.24575
G1 X155.928 Y108.163 E932.30058
G1 X155.070 Y109.735 E932.42081
G1 X154.610 Y110.397 E932.47485
G1 X153.536 Y111.831 E932.59509
G1 X152.985 Y112.418 E932.64912
G1 X151.718 Y113.685 E932.76936
G1 X151.088 Y114.185 E932.82340
G1 X149.653 Y115.259 E932.94363
G1 X148.957 Y115.662 E932.99767
G1 X147.384 Y116.521 E933.11790
G1 X146.636 Y116.818 E933.17193
G1 X144.957 Y117.444 E933.29216
G1 X142.425 Y118.010 E933.46630
G1 X140.000 Y118.213 E933.62959
G1 X137.575 Y118.010 E933.79288
G1 X135.826 Y117.630 E933.91299
G1 X135.043 Y117.444 E933.96703
G1 X132.616 Y116.521 E934.14129
G1 X131.043 Y115.662 E934.26152
G1 X130.347 Y115.259 E934.31555
G1 X128.912 Y114.185 E934.43579
G1 X128.282 Y113.685 E934.48983
G1 X127.015 Y112.418 E934.61006
G1 X126.464 Y111.831 E934.66410
G1 X125.390 Y110.397 E934.78433
G1 X124.930 Y109.735 E934.83837
G1 X124.072 Y108.163 E934.95861
G1 X123.708 Y107.431 E935.01343
G1 X122.798 Y105.092 E935.18191
G1 X121.861 Y101.839 E935.40908
G1 X120.461 Y96.580 E935.77430
G1 X120.226 Y95.580 E935.84324
G1 X119.997 Y94.382 E935.92506
G1 X119.655 Y91.735 E936.10421
G1 X119.655 Y89.107 E936.28054
G1 X119.981 Y86.351 E936.46679
G1 X120.108 Y85.719 E936.51005
G1 X120.251 Y85.214 E936.54525
G1 X120.698 Y83.849 E936.64164
G1 X121.500 Y81.735 E936.79341
G1 X121.653 Y81.401 E936.81806
G1 X121.988 Y80.802 E936.86408
G1 X122.836 Y79.418 E936.97299
G1 X122.187 Y78.933 F7800.000
G1 F3600
G1 X122.925 Y77.823 E937.06247
G1 X123.301 Y77.319 E937.10466
G1 X123.353 Y77.215 E937.11246
G1 X123.736 Y76.748 E937.15300
G1 X126.270 Y74.208 E937.39379
G1 X126.590 Y73.927 E937.42234
G1 X126.965 Y73.635 E937.45425
G1 X127.855 Y73.038 E937.52615
G1 X130.557 Y71.384 E937.73876
G1 X131.107 Y71.109 E937.78001
G1 X131.651 Y70.886 E937.81949
G1 X133.941 Y70.075 E937.98251
G1 X134.499 Y69.909 E938.02158
G1 X134.738 Y69.819 E938.03871
G1 X135.163 Y69.716 E938.06806
G1 X135.743 Y69.618 E938.10753
G1 X137.988 Y69.301 E938.25968
G1 X139.939 Y69.194 E938.39083
G1 X142.015 Y69.302 E938.53032
G1 X144.255 Y69.618 E938.68214
G1 X144.925 Y69.735 E938.72780
G1 X145.367 Y69.852 E938.75849
G1 X145.468 Y69.899 E938.76600
G1 X146.062 Y70.075 E938.80752
G1 X148.344 Y70.884 E938.97000
G1 X148.987 Y71.152 E939.01677
G1 X149.505 Y71.419 E939.05590
G1 X152.149 Y73.040 E939.26399
G1 X152.796 Y73.466 E939.31600
G1 X153.175 Y73.741 E939.34743
G1 X153.796 Y74.271 E939.40218
G1 X156.265 Y76.749 E939.63697
G1 X156.633 Y77.198 E939.67594
G1 X156.713 Y77.338 E939.68675
G1 X157.075 Y77.823 E939.72734
G1 X157.755 Y78.837 E939.80925
G1 X158.710 Y80.397 E939.93200
G1 X159.022 Y80.947 E939.97447
G1 X159.246 Y81.425 E940.00992
G1 X160.063 Y83.580 E940.16459
G1 X160.521 Y84.977 E940.26319
G1 X160.702 Y85.625 E940.30835
G1 X160.794 Y86.073 E940.33903
G1 X161.152 Y89.060 E940.54096
G1 X161.152 Y91.786 E940.72391
G1 X160.800 Y94.510 E940.90818
G1 X160.563 Y95.752 E940.99303
G1 X160.243 Y97.071 E941.08414
G1 X158.530 Y103.434 E941.52639
G1 X157.967 Y105.351 E941.66048
G1 X157.031 Y107.758 E941.83375
G1 X156.644 Y108.536 E941.89207
G1 X155.757 Y110.160 E942.01627
G1 X155.265 Y110.869 E942.07418
G1 X154.156 Y112.350 E942.19837
G1 X153.565 Y112.980 E942.25628
G1 X152.256 Y114.288 E942.38048
G1 X151.581 Y114.825 E942.43839
G1 X150.099 Y115.934 E942.56259
G1 X149.352 Y116.366 E942.62050
G1 X147.728 Y117.253 E942.74469
G1 X146.926 Y117.572 E942.80260
G1 X145.192 Y118.218 E942.92680
G1 X142.545 Y118.810 E943.10883
G1 X140.000 Y119.023 E943.28020
G1 X137.455 Y118.810 E943.45157
G1 X135.648 Y118.417 E943.57570
G1 X134.808 Y118.218 E943.63361
G1 X133.074 Y117.572 E943.75781
G1 X132.272 Y117.253 E943.81572
G1 X130.648 Y116.366 E943.93991
G1 X129.901 Y115.934 E943.99782
G1 X128.419 Y114.825 E944.12202
G1 X127.744 Y114.288 E944.17993
G1 X126.435 Y112.980 E944.30413
G1 X125.844 Y112.350 E944.36204
G1 X124.735 Y110.869 E944.48623
G1 X124.243 Y110.160 E944.54414
G1 X123.356 Y108.536 E944.66834
G1 X122.969 Y107.758 E944.72666
G1 X122.033 Y105.350 E944.90003
G1 X121.084 Y102.054 E945.13020
G1 X119.679 Y96.776 E945.49675
G1 X119.436 Y95.748 E945.56763
G1 X119.200 Y94.510 E945.65224
G1 X118.848 Y91.786 E945.83651
G1 X118.848 Y89.060 E946.01950
G1 X119.184 Y86.224 E946.21111
G1 X119.323 Y85.529 E946.25867
G1 X119.479 Y84.978 E946.29710
G1 X119.937 Y83.580 E946.39581
G1 X120.755 Y81.422 E946.55070
G1 X120.933 Y81.035 E946.57935
G1 X121.291 Y80.395 E946.62856
G1 X122.147 Y78.997 E946.73855
G1 X121.647 Y78.603 F7800.000
G1 F1800
G1 X122.409 Y77.458 E946.79082
G1 X122.761 Y76.986 E946.81320
G1 X122.813 Y76.883 E946.81756
G1 X123.266 Y76.324 E946.84490
G1 X125.838 Y73.746 E946.98334
G1 X126.187 Y73.440 E947.00097
G1 X126.595 Y73.123 E947.02059
G1 X127.513 Y72.506 E947.06265
G1 X130.250 Y70.831 E947.18459
G1 X130.845 Y70.533 E947.20989
G1 X131.426 Y70.295 E947.23373
G1 X133.745 Y69.473 E947.32726
G1 X134.297 Y69.310 E947.34913
G1 X134.551 Y69.214 E947.35944
G1 X135.036 Y69.096 E947.37841
G1 X135.646 Y68.994 E947.40193
G1 X137.926 Y68.672 E947.48944
G1 X139.983 Y68.558 E947.56773
G1 X142.075 Y68.672 E947.64736
G1 X144.353 Y68.993 E947.73481
G1 X145.060 Y69.117 E947.76210
G1 X145.584 Y69.255 E947.78268
G1 X145.694 Y69.307 E947.78729
G1 X146.256 Y69.474 E947.80956
G1 X148.573 Y70.295 E947.90300
G1 X149.254 Y70.578 E947.93104
G1 X149.816 Y70.868 E947.95507
G1 X152.488 Y72.506 E948.07418
G1 X153.156 Y72.946 E948.10459
G1 X153.566 Y73.244 E948.12387
G1 X154.225 Y73.806 E948.15679
G1 X156.734 Y76.325 E948.29190
G1 X157.156 Y76.839 E948.31715
G1 X157.243 Y76.991 E948.32382
G1 X157.591 Y77.458 E948.34595
G1 X158.287 Y78.495 E948.39344
